example/web/assets/KOMO-v5.cube
TITLE "Generated by Resolve"
LUT_3D_SIZE 9
0.00769055 0.0182956 0
0.00761425 0.0183108 0
0.0919814 0.0196384 0
0.217014 0.0323491 0
0.323049 0.0435187 0
0.443824 0.0619669 0
0.550011 0.0733654 0
0.642741 0.0959945 0
0.699977 0.11722 0
0.00769055 0.0182956 0
0.00769055 0.0182956 0
0.0881056 0.0194858 0
0.214786 0.0320439 0
0.32108 0.0432898 0
0.441627 0.0616464 0
0.548424 0.0732128 0
0.641611 0.0955673 0
0.699535 0.117067 0
0.00788891 0.0585794 0.0027924
0.00799573 0.0582437 0.00265507
0.123949 0.0828565 0
0.286625 0.084062 0
0.390829 0.09337 0
0.4981 0.110628 0.00148013
0.590936 0.126329 0.000289921
0.680369 0.149584 0
0.733776 0.170581 0
0.00167849 0.133562 0.0349889
0.00167849 0.133303 0.0348821
0.0407721 0.170504 0.0332494
0.40148 0.248478 0.019791
0.502571 0.242451 0.0160372
0.590463 0.242649 0.0143435
0.659953 0.247669 0.0145724
0.731823 0.258228 0.0167849
0.787259 0.274876 0.0239109
0.0028687 0.220172 0.0766461
0.00285344 0.219684 0.0764019
0.0232853 0.271946 0.0813153
0.334386 0.360662 0.0529793
0.599771 0.405447 0.0772106
0.695567 0.381231 0.0512245
0.760357 0.377722 0.0457618
0.824247 0.382406 0.0466011
0.878126 0.409232 0.0620737
0.0179446 0.335225 0.136217
0.017792 0.334569 0.135866
0.0446937 0.370596 0.140337
0.144778 0.424521 0.108888
0.515328 0.511421 0.100938
0.797391 0.550271 0.0997177
0.872404 0.550484 0.0915694
0.921019 0.566369 0.108598
0.950957 0.605051 0.173205
0.0523995 0.420035 0.18056
0.0522011 0.419715 0.180423
0.0797284 0.440467 0.179843
0.128862 0.490455 0.163912
0.326299 0.5514 0.120241
0.787808 0.653819 0.127337
0.916045 0.691173 0.176516
0.926604 0.717739 0.288899
0.935241 0.75668 0.440391
0.0879377 0.497566 0.217746
0.0878157 0.497322 0.217548
0.10869 0.518166 0.217319
0.145708 0.588174 0.239918
0.272251 0.63772 0.277485
0.762341 0.723812 0.192157
0.883909 0.793484 0.392737
0.928725 0.827817 0.512963
0.946609 0.840833 0.577523
0.105364 0.574716 0.253254
0.105318 0.574563 0.253086
0.124712 0.60058 0.271748
0.17554 0.656184 0.334447
0.344549 0.720027 0.406363
0.741451 0.797574 0.439445
0.887709 0.857816 0.559518
0.929335 0.869825 0.604059
0.948287 0.870634 0.615091
0.00769055 0.0182956 0
0.00761425 0.0182956 0
0.0913558 0.0195926 0
0.216815 0.0323186 0
0.32285 0.0434882 0
0.443412 0.0619059 0
0.549813 0.0733501 0
0.642649 0.095964 0
0.699901 0.117205 0
0.00769055 0.0182956 0
0.00769055 0.0182956 0
0.0879835 0.0194553 0
0.214588 0.0320134 0
0.320974 0.0432746 0
0.441306 0.0616159 0
0.548333 0.0732128 0
0.641443 0.095491 0
0.699474 0.117037 0
0.00793469 0.0584573 0.00274662
0.0080415 0.0580758 0.00259403
0.123735 0.0827649 0
0.286198 0.0839246 0
0.390555 0.0932174 0
0.49778 0.11046 0.00146487
0.590738 0.126177 0.000274662
0.680186 0.149432 0
0.733562 0.170367 0
0.00167849 0.133501 0.0349584
0.00167849 0.13312 0.0347906
0.0407568 0.17023 0.0332189
0.401144 0.248295 0.0197757
0.50219 0.242145 0.0160067
0.590326 0.242512 0.0143282
0.659846 0.247547 0.0145418
0.731655 0.258106 0.0167544
0.787167 0.274769 0.0238804
0.00285344 0.220081 0.0766003
0.00285344 0.219593 0.0763561
0.0232242 0.271717 0.0812695
0.334081 0.36051 0.0529488
0.599359 0.405142 0.0770886
0.695338 0.381109 0.051194
0.760189 0.377584 0.0457465
0.823758 0.381918 0.046479
0.878004 0.409064 0.0620127
0.0178683 0.334936 0.136065
0.0177615 0.334478 0.135805
0.0446326 0.370459 0.140291
0.144732 0.424384 0.108797
0.515129 0.511299 0.100938
0.797253 0.550149 0.0996872
0.872282 0.550347 0.0915084
0.920653 0.565591 0.10808
0.950957 0.604852 0.17293
0.0522774 0.419837 0.180468
0.0521553 0.419638 0.180392
0.0796063 0.440299 0.179828
0.128695 0.490242 0.163851
0.32604 0.551263 0.120241
0.78761 0.653681 0.127275
0.916014 0.691035 0.176333
0.926665 0.717571 0.288426
0.93521 0.756558 0.440162
0.0879072 0.497475 0.2177
0.0877852 0.49723 0.217517
0.108644 0.518013 0.217243
0.14551 0.587808 0.239536
0.271977 0.637552 0.277302
0.762142 0.723659 0.191836
0.883879 0.793347 0.392264
0.928695 0.827741 0.512734
0.946578 0.840772 0.577417
0.105364 0.57467 0.253223
0.105303 0.574456 0.253025
0.124651 0.600412 0.271611
0.175357 0.656062 0.334249
0.344198 0.71986 0.406165
0.740948 0.797299 0.438941
0.887572 0.85771 0.559335
0.929305 0.86981 0.604028
0.948272 0.870619 0.615076
0.0119326 0.028336 0.0441444
0.0118868 0.0282292 0.0433356
0.0849928 0.0320439 0.0449531
0.226062 0.0196994 0.0172427
0.3411 0.0305791 0.0137789
0.48687 0.0469215 0.0145266
0.600656 0.0596933 0.0126955
0.691203 0.0898756 0.0116426
0.743008 0.10811 0.0137179
0.0118868 0.0279545 0.0416571
0.0118563 0.0278172 0.0408331
0.0809033 0.0317845 0.0416266
0.223636 0.0195773 0.016083
0.338964 0.0305028 0.0131838
0.484215 0.046891 0.0139773
0.598123 0.0593271 0.0122377
0.689082 0.0893568 0.0111086
0.741802 0.108141 0.0130922
0.00251774 0.0763104 0.0563516
0.00265507 0.0756237 0.0557412
0.084184 0.0837262 0.0545357
0.276356 0.0613718 0.0141756
0.389761 0.0733806 0.0145724
0.517632 0.0892348 0.0155489
0.624674 0.106783 0.0124666
0.707439 0.136294 0.0117647
0.758175 0.159915 0.0170443
0.00274662 0.162936 0.0974136
0.00274662 0.162341 0.0967575
0.0245365 0.192233 0.0979782
0.353826 0.240909 0.0616007
0.490425 0.216922 0.0370947
0.58584 0.217395 0.0290837
0.672038 0.219028 0.0259556
0.759869 0.234165 0.0277867
0.81294 0.262379 0.0415656
0.00624094 0.240818 0.132372
0.00616464 0.240253 0.131777
0.0276341 0.291051 0.135195
0.244785 0.340536 0.101503
0.575738 0.401083 0.118669
0.693767 0.373053 0.0733806
0.767132 0.363668 0.0625162
0.837095 0.373663 0.0670176
0.89543 0.420218 0.0977493
0.0252384 0.356695 0.192142
0.0251011 0.356222 0.191623
0.0555886 0.394736 0.197787
0.113039 0.420966 0.161242
0.45977 0.509773 0.15787
0.793835 0.560281 0.141756
0.882124 0.560388 0.120714
0.929015 0.578698 0.147799
0.938888 0.627268 0.263432
0.065919 0.447318 0.244999
0.0657206 0.446921 0.244434
0.0924849 0.466804 0.242359
0.130724 0.506279 0.209689
0.28426 0.560632 0.197681
0.77525 0.662043 0.157671
0.909712 0.703609 0.226398
0.917678 0.735088 0.369207
0.937911 0.767697 0.482704
0.100221 0.5308 0.282551
0.100008 0.530221 0.281926
0.118273 0.545922 0.280171
0.150439 0.60708 0.292195
0.264958 0.648905 0.3234
0.738216 0.732204 0.262028
0.885359 0.80502 0.445701
0.930312 0.833631 0.542
0.947265 0.842985 0.591134
0.116518 0.613321 0.32575
0.116381 0.612848 0.325124
0.13283 0.627298 0.330968
0.178744 0.663264 0.367514
0.348318 0.723049 0.42623
0.751797 0.806134 0.473747
0.892027 0.858305 0.570993
0.930694 0.867857 0.6103
0.948837 0.869566 0.624308
0.0146029 0.0495308 0.127001
0.0145571 0.0493935 0.126604
0.0738842 0.0674601 0.154467
0.220111 0.0529488 0.135912
0.339986 0.0360266 0.0931106
0.505653 0.0497292 0.0673991
0.634379 0.0760967 0.067628
0.741268 0.116869 0.07364
0.781704 0.124071 0.0780041
0.0144656 0.0491035 0.125765
0.0144045 0.0489357 0.125277
0.0718395 0.0667124 0.153109
0.217426 0.0527962 0.133608
0.338125 0.0355993 0.0919051
0.503212 0.0491493 0.0663157
0.632471 0.0753338 0.0664988
0.739818 0.116442 0.0724956
0.781201 0.124056 0.0770275
0.00572213 0.109545 0.136568
0.00573739 0.108873 0.136233
0.0627909 0.114458 0.166232
0.272725 0.116411 0.163134
0.415869 0.0726787 0.084123
0.553811 0.0857557 0.0650645
0.675059 0.12488 0.0674601
0.765209 0.16202 0.0715801
0.805463 0.187884 0.0911574
0.00628672 0.189853 0.172
0.00627146 0.189502 0.171633
0.0324407 0.227955 0.20972
0.261692 0.253285 0.225147
0.476829 0.207706 0.110246
0.580194 0.191867 0.0685588
0.669947 0.20235 0.0648966
0.76994 0.222705 0.068101
0.831693 0.266072 0.0978714
0.0140383 0.269947 0.206714
0.0139773 0.269581 0.206332
0.0402838 0.326772 0.250263
0.128481 0.351156 0.234424
0.531823 0.414557 0.228428
0.680781 0.360922 0.121096
0.760739 0.332631 0.086244
0.844099 0.348241 0.0997635
0.910353 0.429068 0.166857
0.0377813 0.387304 0.276326
0.037644 0.386938 0.275914
0.0742351 0.433585 0.313619
0.117098 0.441215 0.237064
0.352041 0.503273 0.22388
0.761944 0.575433 0.241688
0.880354 0.562387 0.176196
0.919753 0.596445 0.257084
0.926741 0.663828 0.418952
0.0834211 0.48101 0.348699
0.0832532 0.480659 0.348257
0.111513 0.50927 0.368017
0.147021 0.556161 0.32604
0.22092 0.566049 0.292348
0.715358 0.677165 0.272877
0.885283 0.736492 0.367132
0.923888 0.769345 0.494224
0.943114 0.791058 0.55787
0.120439 0.582223 0.409735
0.120256 0.581598 0.40914
0.139116 0.602274 0.410895
0.167056 0.647059 0.397955
0.26302 0.672557 0.407645
0.705684 0.763638 0.423621
0.890578 0.833173 0.548959
0.932311 0.842222 0.588342
0.948104 0.844694 0.605371
0.138506 0.670512 0.447227
0.138415 0.670237 0.44686
0.153201 0.675196 0.44126
0.18761 0.67985 0.432914
0.360357 0.739528 0.487831
0.759594 0.825162 0.543404
0.899245 0.861219 0.59382
0.932921 0.863996 0.610407
0.949157 0.863859 0.613993
0.0200809 0.0661936 0.181796
0.0200351 0.0661326 0.181292
0.0716106 0.0740826 0.235554
0.199496 0.0673381 0.240421
0.32697 0.0628824 0.197604
0.484016 0.0620279 0.160342
0.643763 0.0969863 0.163745
0.744305 0.12488 0.165545
0.783581 0.133944 0.167041
0.0199435 0.066041 0.180468
0.019913 0.0659648 0.180056
0.0695201 0.0740063 0.232578
0.197543 0.0678264 0.238315
0.324865 0.062562 0.196582
0.482033 0.061677 0.159304
0.642084 0.0961929 0.16199
0.743328 0.124224 0.163745
0.783413 0.133532 0.165454
0.0130922 0.13228 0.191897
0.013138 0.131716 0.191531
0.0680095 0.123079 0.245884
0.218128 0.117906 0.325551
0.394202 0.111757 0.245655
0.554482 0.109056 0.181216
0.690669 0.141939 0.177096
0.771862 0.174609 0.181125
0.803311 0.202594 0.211917
0.0107881 0.21062 0.229633
0.0107424 0.210285 0.229267
0.0340124 0.238651 0.284901
0.174975 0.237064 0.332586
0.457343 0.263951 0.336004
0.591531 0.217823 0.217823
0.683665 0.221942 0.186709
0.78323 0.246525 0.184558
0.829099 0.315175 0.255024
0.0219883 0.297917 0.280156
0.0219272 0.297536 0.279744
0.0497139 0.354147 0.349401
0.110475 0.37615 0.37673
0.440009 0.426627 0.400732
0.663676 0.371115 0.244709
0.743023 0.320485 0.165164
0.834058 0.346639 0.184756
0.886351 0.465827 0.328527
0.0509499 0.412879 0.3514
0.0507515 0.412436 0.350866
0.0943923 0.462501 0.408103
0.134844 0.478248 0.395102
0.26894 0.510277 0.362387
0.728298 0.588373 0.359365
0.854887 0.550774 0.256687
0.907301 0.569162 0.303685
0.926192 0.662852 0.480125
0.0999771 0.509468 0.426047
0.0997177 0.508934 0.425467
0.130648 0.542901 0.457191
0.171832 0.604852 0.470069
0.219318 0.586084 0.386633
0.650843 0.67628 0.360601
0.878477 0.744823 0.441184
0.926467 0.777722 0.54667
0.945663 0.799283 0.609232
0.141222 0.627573 0.499748
0.14107 0.626963 0.49926
0.159869 0.646204 0.509377
0.190249 0.679347 0.506416
0.276127 0.693904 0.488746
0.65594 0.778836 0.515023
0.889982 0.84445 0.60209
0.933639 0.850858 0.63653
0.949554 0.854459 0.659449
0.154284 0.697276 0.529732
0.154223 0.697093 0.529412
0.169665 0.700252 0.5299
0.211551 0.705852 0.522164
0.380453 0.76144 0.561685
0.751354 0.837858 0.61561
0.903304 0.871199 0.656794
0.934447 0.873411 0.669062
0.950195 0.87332 0.672526
0.0302129 0.071519 0.2795
0.0301518 0.071519 0.278828
0.0740978 0.0693065 0.346746
0.182971 0.0559091 0.376776
0.289845 0.0482338 0.356558
0.479469 0.0808576 0.308339
0.594705 0.100328 0.290669
0.69163 0.121584 0.29279
0.743282 0.146944 0.304921
0.0299992 0.0714885 0.277195
0.0299382 0.0714885 0.276631
0.0723888 0.069276 0.343481
0.181506 0.0563211 0.375265
0.287968 0.0483101 0.354818
0.47747 0.0807355 0.306401
0.593683 0.100099 0.289128
0.691539 0.121477 0.290715
0.744015 0.147189 0.303807
0.022034 0.137285 0.297902
0.0222171 0.136965 0.297292
0.0728161 0.110262 0.38204
0.180117 0.106996 0.45243
0.336233 0.0793164 0.447105
0.530816 0.115877 0.365911
0.636301 0.136294 0.324056
0.72462 0.169924 0.324773
0.769802 0.209567 0.355062
0.0171206 0.234089 0.320287
0.0170596 0.233738 0.319783
0.0358892 0.247059 0.392706
0.130175 0.218662 0.421012
0.34081 0.226215 0.509468
0.559136 0.209369 0.434775
0.644862 0.203662 0.358862
0.754604 0.257893 0.374929
0.820966 0.34789 0.434043
0.0302586 0.328908 0.374868
0.0301823 0.328511 0.37435
0.0581064 0.368917 0.441367
0.0934005 0.36672 0.471443
0.283162 0.382727 0.515084
0.629252 0.40177 0.527276
0.705653 0.32491 0.421836
0.817914 0.400031 0.440513
0.885557 0.520974 0.53489
0.0730449 0.442786 0.449149
0.0727703 0.442329 0.448585
0.1187 0.495598 0.519234
0.16878 0.52253 0.554406
0.260456 0.544274 0.564828
0.645594 0.612558 0.581201
0.817914 0.579141 0.487144
0.881666 0.571313 0.467124
0.926268 0.683635 0.610803
0.123583 0.549142 0.519234
0.123323 0.548562 0.518715
0.154604 0.588006 0.556786
0.205356 0.659968 0.608728
0.26807 0.647044 0.582544
0.510445 0.678264 0.554208
0.843503 0.741955 0.558694
0.915938 0.743603 0.565835
0.942336 0.775082 0.643351
0.161608 0.673167 0.590356
0.161501 0.672694 0.589944
0.179431 0.686366 0.601877
0.234455 0.718929 0.624201
0.36321 0.756359 0.646464
0.544656 0.778042 0.613748
0.844312 0.829084 0.61709
0.929259 0.849119 0.664042
0.950011 0.857923 0.720424
0.168734 0.721355 0.610162
0.168673 0.721172 0.609766
0.186114 0.724559 0.615579
0.27921 0.75079 0.647105
0.493416 0.819287 0.704585
0.738903 0.854322 0.726024
0.886656 0.879408 0.734646
0.929686 0.887175 0.755993
0.95285 0.890364 0.773983
0.0355993 0.0688792 0.388495
0.035584 0.0688792 0.387976
0.072755 0.0713054 0.436332
0.185504 0.0611887 0.465034
0.274739 0.0451972 0.450828
0.466712 0.0683299 0.424384
0.58381 0.0916457 0.41529
0.665431 0.115251 0.413581
0.70837 0.13756 0.413504
0.0355077 0.0688487 0.386435
0.0354925 0.0688334 0.385931
0.0714885 0.071107 0.433936
0.184131 0.0617075 0.463722
0.272908 0.0451972 0.44979
0.464302 0.0680095 0.423499
0.582528 0.0914168 0.413901
0.664805 0.115007 0.412268
0.708263 0.137484 0.412406
0.0243839 0.130068 0.40676
0.0245823 0.129732 0.406317
0.0742657 0.117922 0.487511
0.168322 0.114611 0.539391
0.316854 0.0754406 0.533974
0.517266 0.10515 0.494896
0.618326 0.124269 0.459678
0.682948 0.153262 0.437339
0.718456 0.188052 0.438056
0.0213474 0.247807 0.4103
0.0212863 0.24741 0.409934
0.0383917 0.252415 0.478309
0.107683 0.215442 0.508736
0.28188 0.201236 0.568521
0.514366 0.185672 0.568429
0.629419 0.189563 0.505379
0.707179 0.228153 0.489708
0.766812 0.299748 0.519478
0.0399634 0.353002 0.453483
0.0398413 0.35259 0.45304
0.0668193 0.383307 0.514672
0.0903944 0.371008 0.557565
0.205676 0.350256 0.571847
0.545632 0.337652 0.665263
0.685618 0.312551 0.582681
0.776455 0.373083 0.57583
0.857359 0.493751 0.636835
0.0888228 0.463584 0.532769
0.0885939 0.463127 0.532204
0.124071 0.504921 0.590051
0.165789 0.528237 0.634424
0.228702 0.530007 0.638086
0.528969 0.582132 0.693263
0.797391 0.602716 0.703075
0.872999 0.595117 0.675639
0.926543 0.704341 0.750561
0.138186 0.580682 0.597147
0.137926 0.579919 0.596429
0.164553 0.616281 0.637766
0.229465 0.678523 0.704311
0.339788 0.698848 0.714092
0.547463 0.729 0.728466
0.802945 0.755856 0.728252
0.901625 0.732723 0.683406
0.938155 0.77145 0.728664
0.170336 0.696727 0.658457
0.17023 0.696284 0.657893
0.191684 0.70721 0.674449
0.30544 0.75758 0.725261
0.47393 0.810101 0.766781
0.614023 0.821408 0.763378
0.750179 0.809308 0.706798
0.90869 0.840726 0.721172
0.946807 0.841825 0.750927
0.182818 0.735302 0.681453
0.182696 0.735149 0.680995
0.20827 0.740276 0.694881
0.368887 0.798627 0.758206
0.611551 0.852384 0.814511
0.793271 0.878752 0.825208
0.843183 0.878264 0.785595
0.905623 0.886183 0.785321
0.952911 0.894743 0.811444
0.0439307 0.0802472 0.481804
0.0438239 0.0801099 0.481285
0.0841688 0.0852522 0.516243
0.192248 0.0772106 0.549355
0.286595 0.0484016 0.528145
0.45713 0.0664378 0.515862
0.582406 0.0917067 0.502129
0.66389 0.113497 0.494362
0.697246 0.133272 0.483391
0.043595 0.0797742 0.48011
0.0435035 0.0796521 0.479683
0.0827497 0.0848402 0.514321
0.190463 0.0777295 0.548272
0.284642 0.0484016 0.527382
0.454688 0.0659648 0.515023
0.580926 0.0912947 0.501091
0.663066 0.113207 0.493614
0.696971 0.133165 0.482597
0.0266728 0.145769 0.492592
0.0269017 0.145235 0.492317
0.0840772 0.139361 0.562493
0.172381 0.127611 0.61561
0.316686 0.0821698 0.60737
0.501183 0.103105 0.582879
0.623987 0.127001 0.545098
0.677119 0.148165 0.515541
0.709209 0.182498 0.509987
0.0268254 0.264378 0.496834
0.0267643 0.264012 0.496452
0.0425422 0.26305 0.546593
0.106447 0.2309 0.591638
0.25182 0.195895 0.627726
0.482368 0.166445 0.633509
0.626169 0.185183 0.593179
0.70367 0.227253 0.577951
0.754788 0.291752 0.599588
0.0508736 0.37438 0.523796
0.0507362 0.374029 0.523461
0.0729686 0.39263 0.571649
0.098085 0.383627 0.633051
0.19086 0.353948 0.642573
0.50605 0.315404 0.730816
0.680171 0.314122 0.691203
0.801221 0.423087 0.702571
0.869429 0.534829 0.741054
0.100069 0.484672 0.592905
0.099855 0.484184 0.592401
0.125933 0.510521 0.635981
0.166278 0.534478 0.700328
0.268482 0.568643 0.731533
0.566293 0.609857 0.792218
0.791226 0.617716 0.797787
0.889052 0.66067 0.804471
0.928054 0.741726 0.834943
0.141848 0.598917 0.667369
0.141619 0.598138 0.666667
0.162325 0.619211 0.698878
0.235355 0.654017 0.744915
0.358144 0.697856 0.77705
0.569894 0.737636 0.814847
0.777722 0.750881 0.822446
0.89424 0.756832 0.820798
0.940581 0.800305 0.832288
0.179767 0.707958 0.72546
0.179553 0.707622 0.725017
0.207904 0.717327 0.738796
0.3505 0.775753 0.794308
0.513909 0.815961 0.830335
0.6654 0.833371 0.849317
0.780346 0.839399 0.837247
0.895018 0.848997 0.830137
0.946792 0.842649 0.818601
0.201663 0.743572 0.7467
0.201556 0.743496 0.746502
0.232059 0.748577 0.754894
0.416129 0.813962 0.813367
0.64863 0.859098 0.858061
0.804685 0.884474 0.862699
0.848341 0.887861 0.849195
0.890288 0.887984 0.828931
0.953033 0.896361 0.83949
0.0558022 0.0977798 0.537743
0.0557717 0.097734 0.537591
0.0956893 0.0964828 0.5691
0.199115 0.089189 0.603098
0.297948 0.053727 0.583749
0.462669 0.0726024 0.580072
0.59707 0.0988327 0.558816
0.669795 0.117418 0.545937
0.69839 0.133211 0.533043
0.0556802 0.097612 0.537194
0.0556497 0.0975662 0.537041
0.0944228 0.0963302 0.568078
0.197101 0.0900435 0.602716
0.296162 0.053727 0.583612
0.460151 0.0721294 0.579705
0.595514 0.098497 0.558602
0.669108 0.117113 0.545693
0.698085 0.133043 0.532677
0.02916 0.161456 0.548272
0.0293584 0.161059 0.548196
0.0930495 0.155184 0.608484
0.181918 0.139635 0.667933
0.329732 0.0931106 0.661418
0.50959 0.110307 0.639063
0.636393 0.134997 0.606836
0.681559 0.153521 0.570031
0.707286 0.178531 0.558068
0.0307012 0.276646 0.555398
0.0306249 0.276204 0.555154
0.047776 0.272023 0.597833
0.118791 0.24419 0.65771
0.249958 0.20441 0.684321
0.477775 0.164141 0.684108
0.622156 0.189639 0.65861
0.716777 0.244144 0.646281
0.764691 0.301427 0.663569
0.0598001 0.388922 0.583322
0.0595712 0.388403 0.582956
0.0802319 0.401724 0.621866
0.111742 0.396674 0.693935
0.211658 0.370687 0.714992
0.540002 0.368215 0.801419
0.733959 0.4103 0.785977
0.841489 0.511803 0.78143
0.886 0.568994 0.794263
0.108248 0.502876 0.639582
0.108003 0.50219 0.638987
0.128878 0.51754 0.674678
0.189273 0.548959 0.736263
0.382422 0.636423 0.797971
0.712535 0.7028 0.852735
0.846586 0.729244 0.854551
0.901473 0.739086 0.857694
0.931945 0.769451 0.868086
0.143343 0.613748 0.719997
0.143191 0.61326 0.719554
0.166842 0.620829 0.736767
0.289265 0.67393 0.777935
0.494652 0.748333 0.83415
0.730129 0.795209 0.873274
0.849165 0.812177 0.875792
0.90016 0.809888 0.876371
0.944106 0.831281 0.884962
0.185885 0.706157 0.761685
0.185672 0.705837 0.761486
0.217136 0.713161 0.767819
0.377508 0.769787 0.815976
0.560616 0.806668 0.852949
0.725994 0.832319 0.878981
0.826123 0.846372 0.880735
0.893172 0.850034 0.884825
0.948104 0.856687 0.888014
0.211902 0.745647 0.774624
0.211841 0.745586 0.774563
0.242847 0.752529 0.780056
0.439582 0.819104 0.836454
0.6607 0.860792 0.878874
0.805341 0.885176 0.886625
0.854856 0.892241 0.888472
0.905684 0.899184 0.895628
0.955322 0.902388 0.896361
