example/web/assets/KOMO-v5.cube
TITLE "Generated by Resolve"
LUT_3D_SIZE 33
0.00769055 0.0182956 0
0.00769055 0.0182956 0
0.00769055 0.0182956 0
0.00767529 0.0182956 0
0.00761425 0.0183108 0
0.0124819 0.0184939 0
0.0254978 0.0184787 0
0.0539254 0.0182803 0
0.0919814 0.0196384 0
0.128847 0.0218204 0
0.160052 0.0245212 0
0.189059 0.0281529 0
0.217014 0.0323491 0
0.244663 0.0360113 0
0.270802 0.0386969 0
0.296605 0.0407568 0
0.323049 0.0435187 0
0.350332 0.0474403 0
0.380682 0.0519875 0
0.411963 0.0570535 0
0.443824 0.0619669 0
0.472847 0.065568 0
0.498466 0.0682994 0
0.524346 0.0709239 0
0.550011 0.0733654 0
0.574777 0.0770581 0
0.598779 0.0818189 0
0.621561 0.0881819 0
0.642741 0.0959945 0
0.66244 0.10309 0
0.677623 0.108782 0
0.691188 0.113909 0
0.699977 0.11722 0
0.00769055 0.0182956 0
0.00769055 0.0182956 0
0.00767529 0.0182956 0
0.00766003 0.0182956 0
0.00758373 0.0183108 0
0.0122377 0.0184939 0
0.0248722 0.0185092 0
0.0534676 0.0182803 0
0.0910201 0.0195926 0
0.128176 0.0217746 0
0.15938 0.0244602 0
0.188479 0.0280613 0
0.216403 0.0322576 0
0.244343 0.0359808 0
0.270237 0.0386511 0
0.295964 0.0406806 0
0.322454 0.0434424 0
0.34963 0.0473335 0
0.379995 0.0518807 0
0.411475 0.0569772 0
0.443198 0.0618753 0
0.472328 0.065507 0
0.497963 0.0682383 0
0.523842 0.0708782 0
0.549722 0.0733349 0
0.574395 0.076997 0
0.598321 0.0817273 0
0.62121 0.0880751 0
0.64242 0.0958724 0
0.662135 0.102983 0
0.677501 0.108736 0
0.691035 0.113848 0
0.69984 0.117174 0
0.00769055 0.0182956 0
0.00769055 0.0182956 0
0.00769055 0.0182956 0
0.00767529 0.0182956 0
0.00761425 0.0183108 0
0.0121004 0.0184787 0
0.0245365 0.0185245 0
0.0528115 0.018265 0
0.0901656 0.0195468 0
0.127398 0.0217136 0
0.158709 0.0243992 0
0.188006 0.0280003 0
0.216007 0.0322118 0
0.243702 0.0359045 0
0.269688 0.0386053 0
0.29543 0.0406348 0
0.321935 0.0433814 0
0.34934 0.047303 0
0.379599 0.0518196 0
0.410864 0.0568704 0
0.442573 0.0617838 0
0.471794 0.0654459 0
0.497459 0.0681926 0
0.523644 0.0708476 0
0.549325 0.0733043 0
0.574029 0.076936 0
0.597955 0.081651 0
0.620768 0.087953 0
0.6421 0.0957504 0
0.661982 0.102937 0
0.677287 0.108644 0
0.690822 0.113771 0
0.699718 0.117128 0
0.00769055 0.0182956 0
0.00769055 0.0182956 0
0.00769055 0.0182956 0
0.00769055 0.0182956 0
0.00769055 0.0182956 0
0.0122225 0.0184329 0
0.0242924 0.0184787 0
0.0522621 0.0182193 0
0.0893721 0.0194858 0
0.126726 0.0216678 0
0.158221 0.0243534 0
0.187411 0.027924 0
0.215396 0.0321202 0
0.243061 0.0358434 0
0.269139 0.0385595 0
0.294896 0.040589 0
0.321614 0.0433356 0
0.34873 0.0472114 0
0.379004 0.0517281 0
0.410269 0.0567788 0
0.441932 0.0616922 0
0.471382 0.0654002 0
0.497261 0.0681773 0
0.52314 0.0708019 0
0.548928 0.0732586 0
0.573648 0.0768749 0
0.597589 0.0815747 0
0.6206 0.087892 0
0.641932 0.0956893 0
0.661692 0.102815 0
0.677058 0.108568 0
0.690623 0.113695 0
0.699596 0.117082 0
0.00769055 0.0182956 0
0.00769055 0.0182956 0
0.00769055 0.0182956 0
0.00769055 0.0182956 0
0.00769055 0.0182956 0
0.0120241 0.0184329 0
0.0236515 0.0185245 0
0.0513619 0.0182345 0
0.0881056 0.0194858 0
0.126024 0.0216678 0
0.15758 0.0243076 0
0.186831 0.0278477 0
0.214786 0.0320439 0
0.242527 0.0357824 0
0.268788 0.038529 0
0.294667 0.0405585 0
0.32108 0.0432898 0
0.348226 0.0471351 0
0.378515 0.0516365 0
0.409781 0.0566873 0
0.441627 0.0616464 0
0.471168 0.0653849 0
0.496864 0.0681315 0
0.522728 0.0707561 0
0.548424 0.0732128 0
0.573266 0.0768139 0
0.597391 0.081529 0
0.620249 0.0878004 0
0.641611 0.0955673 0
0.661387 0.102708 0
0.676829 0.108476 0
0.69041 0.113619 0
0.699535 0.117067 0
0.00863661 0.0213626 0
0.00863661 0.0213321 0
0.00863661 0.0213321 0
0.00862135 0.0212863 0
0.00860609 0.0212406 0
0.0127413 0.021561 0
0.0240635 0.0217441 0
0.0534524 0.021561 0
0.0905776 0.0231479 0
0.128313 0.0259709 0
0.160311 0.0291295 0
0.189578 0.0326696 0
0.217395 0.0365606 0
0.244984 0.0398108 0
0.271183 0.0423133 0
0.29688 0.0442969 0
0.323079 0.0470436 0
0.350149 0.0509346 0
0.380591 0.0554971 0
0.412116 0.060441 0
0.443534 0.0652476 0
0.472999 0.0690623 0
0.498985 0.07187 0
0.525063 0.0745556 0
0.550698 0.0771649 0
0.575601 0.0810407 0
0.599191 0.0856336 0
0.622034 0.0918746 0
0.643305 0.0994278 0
0.663035 0.1066 0
0.678721 0.112627 0
0.692256 0.11751 0
0.701488 0.120958 0
0.0103456 0.0282444 0
0.0103456 0.0282444 0
0.0103304 0.0281529 0
0.0103151 0.0280766 0
0.0102998 0.027985 0
0.0142977 0.0284733 0
0.0256962 0.0294957 0
0.0586709 0.0305333 0
0.097612 0.032105 0
0.135424 0.0353552 0
0.168276 0.0395361 0
0.197986 0.0437018 0
0.226612 0.0475013 0
0.254276 0.0499428 0
0.280156 0.0515908 0
0.304906 0.0533761 0
0.330282 0.0561837 0
0.357198 0.0601663 0
0.387884 0.0651102 0
0.419013 0.0697948 0
0.449744 0.0742504 0
0.478813 0.0782635 0
0.504936 0.081178 0
0.531609 0.0839704 0
0.557519 0.0870985 0
0.581888 0.0914321 0
0.605112 0.0962081 0
0.627375 0.102525 0
0.648692 0.110155 0
0.668452 0.117418 0
0.683879 0.123156 0
0.69749 0.127977 0
0.707012 0.131731 0
0.0113527 0.0409094 0
0.0113527 0.0407874 0
0.0113527 0.0407263 0
0.0113375 0.0406043 0
0.0113222 0.040528 0
0.0153506 0.0416876 0
0.0268864 0.0441596 0
0.0676738 0.0519875 0
0.113451 0.0550698 0
0.154299 0.0565042 0
0.190051 0.0583352 0
0.223407 0.0607156 0
0.255009 0.0630808 0
0.285542 0.065156 0
0.311788 0.067216 0
0.335348 0.0694896 0
0.360342 0.0724956 0
0.386908 0.0762188 0
0.415381 0.0805676 0
0.444114 0.085069 0
0.472572 0.0898146 0
0.498802 0.0941634 0.000259403
0.522789 0.0973831 0.000137331
0.547509 0.100542 0
0.571664 0.104448 0
0.595163 0.109056 0
0.61857 0.114321 0
0.640909 0.120638 0
0.662287 0.128466 0
0.681285 0.135454 0
0.69601 0.140932 0
0.708995 0.145815 0
0.71809 0.149142 0
0.00788891 0.0585794 0.0027924
0.00794995 0.0583963 0.00273136
0.00798047 0.0582895 0.00268559
0.00801099 0.0581826 0.00263981
0.00799573 0.0582437 0.00265507
0.0128481 0.0589151 0.00263981
0.0252384 0.0612955 0.00112917
0.0618601 0.0713512 0
0.123949 0.0828565 0
0.174121 0.0842756 0
0.21561 0.0838483 0
0.252491 0.083238 0
0.286625 0.084062 0
0.316915 0.0858778 0
0.342412 0.0881056 0
0.366049 0.0905928 0
0.390829 0.09337 0
0.416495 0.0964523 0.000396735
0.444007 0.100359 0.000900282
0.471778 0.105196 0.0012665
0.4981 0.110628 0.00148013
0.522469 0.115709 0.00148013
0.545083 0.119417 0.00115969
0.568215 0.122744 0.000717174
0.590936 0.126329 0.000289921
0.613565 0.130709 0
0.63711 0.136019 0
0.660121 0.142641 0
0.680369 0.149584 0
0.698436 0.156619 0
0.712428 0.162478 0
0.724819 0.167468 0
0.733776 0.170581 0
0.00204471 0.0802014 0.0112306
0.00204471 0.0800793 0.0111849
0.00204471 0.0800793 0.0111849
0.00205997 0.0800183 0.0111543
0.00205997 0.0799115 0.0111086
0.00531014 0.081178 0.0117189
0.0173342 0.0835126 0.0124819
0.0512398 0.0893721 0.00740063
0.1084 0.102678 0.002533
0.184161 0.116091 0.00512703
0.241184 0.117021 0.00560006
0.28307 0.114382 0.00440986
0.317082 0.113741 0.00373846
0.347051 0.115236 0.00350958
0.373754 0.117601 0.0034638
0.397055 0.119814 0.00344854
0.420829 0.122255 0.00347906
0.445274 0.124971 0.00344854
0.471717 0.128359 0.00335698
0.497856 0.132982 0.00329595
0.523491 0.138766 0.00317388
0.546899 0.143435 0.0028687
0.568673 0.147021 0.00248722
0.591333 0.150546 0.00210575
0.61387 0.153841 0.0016022
0.636454 0.157702 0.000854505
0.658885 0.162783 4.57771e-05
0.680323 0.168673 0
0.699123 0.175036 0
0.716075 0.181201 0.000228885
0.729946 0.186465 0.00122072
0.742626 0.191531 0.00247196
0.751766 0.194553 0.00329595
0.00111391 0.0985428 0.0195773
0.00111391 0.0985428 0.0195773
0.00111391 0.098497 0.0195468
0.00111391 0.098436 0.0195315
0.00111391 0.0983291 0.0194705
0.00352483 0.0996414 0.0198367
0.0113527 0.103304 0.0212253
0.0365454 0.110338 0.0186313
0.0906386 0.118761 0.0101015
0.170336 0.140536 0.00865187
0.252857 0.15462 0.0112459
0.308492 0.153353 0.0107424
0.344442 0.150912 0.00947585
0.374929 0.151766 0.00848402
0.401312 0.15375 0.00773632
0.424018 0.155505 0.00714122
0.44741 0.157626 0.00666819
0.471687 0.160281 0.00622568
0.497505 0.162997 0.00587472
0.521798 0.165698 0.00564584
0.54612 0.169741 0.00523384
0.569284 0.174319 0.00474556
0.589899 0.177798 0.00437934
0.611292 0.180591 0.00404364
0.633539 0.18381 0.00358587
0.655314 0.187213 0.00296025
0.675212 0.191135 0.00257877
0.693477 0.195758 0.00270085
0.71075 0.200992 0.00352483
0.727749 0.206424 0.00471504
0.742077 0.211383 0.00614939
0.754589 0.215824 0.00758373
0.764187 0.219165 0.00872816
0.00131228 0.115679 0.0271458
0.00131228 0.115618 0.0271153
0.00131228 0.115511 0.0270695
0.00131228 0.115404 0.0270237
0.00131228 0.115343 0.0269932
0.00326543 0.116625 0.0272526
0.00862135 0.120684 0.0282292
0.0220798 0.133654 0.0289311
0.0659342 0.142092 0.0220951
0.147768 0.160189 0.0131075
0.243305 0.190738 0.0130159
0.328038 0.199832 0.0146639
0.377691 0.197391 0.0142977
0.406409 0.19559 0.013138
0.42977 0.196002 0.0120699
0.450736 0.197391 0.0111543
0.47248 0.198917 0.0103761
0.495521 0.201022 0.00985733
0.520012 0.202533 0.00939956
0.544305 0.204074 0.00900282
0.567636 0.205646 0.00846876
0.589303 0.208194 0.00807202
0.608072 0.210575 0.00794995
0.627192 0.213092 0.00805676
0.646342 0.215595 0.00814832
0.665904 0.218845 0.00820935
0.684749 0.221988 0.00831617
0.70277 0.225116 0.00863661
0.720378 0.229236 0.00961318
0.737819 0.234073 0.0109712
0.752422 0.238636 0.0125429
0.765011 0.242817 0.0141909
0.774838 0.246021 0.0156405
0.00167849 0.133562 0.0349889
0.00167849 0.133501 0.0349584
0.00167849 0.133364 0.0348974
0.00167849 0.133303 0.0348821
0.00167849 0.133303 0.0348821
0.00343328 0.134478 0.0349737
0.00791943 0.138476 0.0355077
0.0153201 0.156298 0.0381476
0.0407721 0.170504 0.0332494
0.118959 0.184558 0.0218967
0.222736 0.221195 0.0166629
0.323171 0.244587 0.0180514
0.40148 0.248478 0.019791
0.441855 0.246204 0.0194858
0.464057 0.243854 0.0182193
0.482628 0.242634 0.0169833
0.502571 0.242451 0.0160372
0.522805 0.242252 0.0154421
0.545129 0.242115 0.0150607
0.568444 0.242557 0.0147555
0.590463 0.242649 0.0143435
0.609842 0.243381 0.0140688
0.626093 0.244327 0.0140383
0.642634 0.245823 0.0142672
0.659953 0.247669 0.0145724
0.678187 0.250141 0.0149538
0.696223 0.252354 0.0152285
0.714244 0.25481 0.0156863
0.731823 0.258228 0.0167849
0.748608 0.262028 0.0182193
0.763806 0.266835 0.0201572
0.777066 0.271351 0.0220951
0.787259 0.274876 0.0239109
0.00205997 0.15465 0.0449226
0.00205997 0.154482 0.0448463
0.00205997 0.154406 0.0448005
0.00205997 0.154406 0.0448005
0.00204471 0.154314 0.0447547
0.00373846 0.155459 0.0448005
0.00816358 0.159442 0.0451972
0.0137942 0.179568 0.0482032
0.0256809 0.198169 0.0441444
0.086244 0.215167 0.0318761
0.198749 0.24477 0.0228275
0.305257 0.279896 0.0255741
0.398825 0.293935 0.029221
0.464042 0.296117 0.0312505
0.497902 0.293782 0.0300298
0.518029 0.289784 0.0273747
0.536843 0.286015 0.0252079
0.555962 0.283162 0.0239414
0.576425 0.280537 0.0231937
0.597162 0.279225 0.0228885
0.617121 0.278798 0.0227054
0.634287 0.278416 0.0224155
0.64921 0.278416 0.0221866
0.664836 0.278782 0.0220951
0.681575 0.279622 0.0220951
0.699062 0.280812 0.0222019
0.716686 0.281987 0.0222782
0.733913 0.283391 0.0225376
0.751324 0.2869 0.0238651
0.768109 0.291463 0.0257725
0.784085 0.297414 0.0283818
0.798383 0.30277 0.0307317
0.809201 0.307179 0.0329595
0.00230411 0.175677 0.0551156
0.00231937 0.175586 0.0550698
0.00230411 0.175677 0.0551156
0.00231937 0.175494 0.0550393
0.00230411 0.175418 0.0549935
0.00392157 0.176547 0.0549783
0.00834669 0.180743 0.0552987
0.0135042 0.202258 0.0581064
0.021622 0.223667 0.0565957
0.0612802 0.244388 0.0450599
0.166964 0.266636 0.0308537
0.282353 0.299672 0.0314794
0.383001 0.325734 0.0399634
0.462226 0.335164 0.0458534
0.515419 0.33666 0.0467384
0.545007 0.333654 0.0439918
0.566384 0.328267 0.0399023
0.585367 0.322789 0.0363317
0.605112 0.317586 0.033753
0.624735 0.314229 0.0325475
0.643442 0.312291 0.0318761
0.660502 0.311513 0.0313725
0.67541 0.311162 0.03093
0.690745 0.310994 0.0304723
0.707027 0.311147 0.0300755
0.723735 0.31133 0.0297398
0.740688 0.311696 0.0295262
0.757595 0.312657 0.0295872
0.774868 0.316213 0.0308385
0.791791 0.32137 0.032929
0.808347 0.328801 0.0362707
0.823056 0.335576 0.0393683
0.833692 0.340368 0.0418708
0.00247196 0.196582 0.0650797
0.00247196 0.196582 0.0650797
0.00247196 0.19649 0.0650339
0.00247196 0.196399 0.0649882
0.00247196 0.196216 0.0648966
0.00402838 0.19736 0.0647898
0.00849927 0.202029 0.0648966
0.0138094 0.224094 0.0675059
0.0219272 0.247593 0.0691234
0.047715 0.270481 0.0628672
0.132464 0.291432 0.0477302
0.253162 0.315633 0.0402075
0.363973 0.345525 0.0476234
0.45034 0.364309 0.057969
0.514687 0.370382 0.0623789
0.557122 0.370825 0.0619516
0.587091 0.367453 0.0580606
0.608988 0.361318 0.052079
0.629572 0.35433 0.0462959
0.649577 0.348302 0.0428473
0.668742 0.344732 0.04094
0.686122 0.343267 0.0397955
0.701244 0.342748 0.0390173
0.716838 0.342611 0.0383154
0.732616 0.342504 0.037644
0.748837 0.34255 0.0371252
0.765667 0.342992 0.0368811
0.782162 0.343786 0.0369268
0.798718 0.346944 0.0380713
0.815137 0.352117 0.0402228
0.830762 0.359625 0.0439918
0.844984 0.367132 0.0478828
0.855589 0.37261 0.0508278
0.0028687 0.220172 0.0766461
0.00285344 0.220081 0.0766003
0.00285344 0.219974 0.0765545
0.00285344 0.219791 0.076463
0.00285344 0.219684 0.0764019
0.00444038 0.221149 0.0764172
0.00907912 0.22594 0.0762951
0.0150149 0.248005 0.079057
0.0232853 0.271946 0.0813153
0.0407111 0.295369 0.0792706
0.0994125 0.317021 0.0666972
0.212665 0.335729 0.0525673
0.334386 0.360662 0.0529793
0.430533 0.386786 0.0654765
0.503517 0.400458 0.0755016
0.557153 0.405142 0.0792096
0.599771 0.405447 0.0772106
0.630106 0.401144 0.0697337
0.653742 0.393606 0.0605936
0.67512 0.38645 0.0549477
0.695567 0.381231 0.0512245
0.713512 0.378576 0.0489815
0.729152 0.377859 0.0477302
0.744701 0.377646 0.0466926
0.760357 0.377722 0.0457618
0.776059 0.377752 0.0450599
0.792203 0.37818 0.044831
0.808316 0.379217 0.0450752
0.824247 0.382406 0.0466011
0.839353 0.386877 0.0488441
0.853819 0.394186 0.0531319
0.86775 0.402808 0.0581216
0.878126 0.409232 0.0620737
0.00437934 0.246006 0.090013
0.00437934 0.245914 0.0899519
0.00436408 0.245716 0.0898451
0.00434882 0.245609 0.0897993
0.00436408 0.245716 0.0898604
0.00595102 0.247044 0.0899214
0.0108492 0.25243 0.0903792
0.0175479 0.273625 0.0935988
0.0257725 0.295995 0.0945296
0.0394141 0.318059 0.0936141
0.0762798 0.337942 0.0845655
0.168124 0.357031 0.0693523
0.290486 0.377234 0.0613565
0.399908 0.402701 0.0696269
0.482048 0.424247 0.0836042
0.545647 0.435172 0.0924849
0.601221 0.43946 0.0937667
0.644602 0.438743 0.0865797
0.677272 0.433387 0.0753948
0.700908 0.426734 0.0679179
0.723125 0.421469 0.0628824
0.742794 0.418326 0.0594949
0.758587 0.4168 0.0574655
0.774197 0.416373 0.0559548
0.789395 0.41622 0.0545663
0.80415 0.4159 0.0534371
0.819135 0.416297 0.053193
0.83415 0.417365 0.0537575
0.849378 0.420966 0.0561227
0.864088 0.425986 0.0593271
0.877638 0.433524 0.0644846
0.890715 0.443015 0.0708324
0.900725 0.450965 0.0768902
0.00764477 0.275441 0.105089
0.00761425 0.275257 0.104997
0.00761425 0.275257 0.104997
0.00759899 0.275151 0.104952
0.00756847 0.274968 0.104845
0.00914015 0.276356 0.105058
0.0142519 0.281697 0.106081
0.0213474 0.301122 0.109834
0.030045 0.322652 0.110826
0.0424048 0.341192 0.108141
0.0654459 0.3561 0.100389
0.12636 0.376074 0.0880903
0.232425 0.39791 0.076112
0.350637 0.418952 0.0752117
0.446769 0.442542 0.0868849
0.520562 0.460533 0.0991836
0.588571 0.471015 0.104845
0.64741 0.474723 0.100816
0.696529 0.47454 0.0908064
0.728313 0.470283 0.0819562
0.753048 0.466453 0.0760204
0.774197 0.46363 0.0719005
0.790967 0.461936 0.0692454
0.806088 0.460441 0.0670024
0.819989 0.45919 0.0650339
0.833814 0.458808 0.0635538
0.84741 0.459266 0.0633402
0.861433 0.460822 0.0644388
0.875914 0.465476 0.0682231
0.890303 0.472358 0.0735027
0.903029 0.481407 0.0809796
0.914687 0.492119 0.0896315
0.92369 0.501228 0.0980392
0.0120699 0.305715 0.120394
0.0120699 0.305715 0.120394
0.0120546 0.305608 0.120333
0.0120394 0.305516 0.120287
0.0120089 0.305333 0.12018
0.0135195 0.306371 0.120211
0.0187076 0.311055 0.121096
0.0262455 0.32726 0.124437
0.0367132 0.348074 0.126864
0.049897 0.366094 0.124208
0.068101 0.376303 0.114961
0.104112 0.390082 0.103517
0.178195 0.413687 0.0922255
0.28716 0.438132 0.0863813
0.39379 0.458762 0.0894484
0.478798 0.478538 0.0986038
0.559319 0.495079 0.105562
0.63241 0.504799 0.106126
0.699611 0.510216 0.10132
0.747829 0.511711 0.0942855
0.779782 0.51043 0.0882734
0.802426 0.508644 0.0838178
0.819425 0.50721 0.0809796
0.834562 0.50547 0.0786145
0.848386 0.504463 0.0769055
0.861265 0.503868 0.0757305
0.874189 0.505226 0.0762646
0.887114 0.508095 0.0785382
0.900145 0.514382 0.0846113
0.913161 0.523461 0.0933547
0.924605 0.534279 0.104845
0.93431 0.545129 0.116976
0.942123 0.554452 0.128069
0.0179446 0.335225 0.136217
0.0178988 0.335042 0.13611
0.0178683 0.334936 0.136065
0.0178225 0.334768 0.135958
0.017792 0.334569 0.135866
0.0193179 0.3355 0.135943
0.0248417 0.339284 0.136446
0.0329747 0.351507 0.138567
0.0446937 0.370596 0.140337
0.0594339 0.389822 0.13875
0.0754711 0.39762 0.128847
0.100206 0.406226 0.117937
0.144778 0.424521 0.108888
0.229175 0.451575 0.0993668
0.330846 0.474098 0.0941939
0.422538 0.492714 0.0964675
0.515328 0.511421 0.100938
0.603296 0.52755 0.104143
0.6869 0.539452 0.104936
0.753048 0.546426 0.102831
0.797391 0.550271 0.0997177
0.824704 0.551156 0.0963455
0.842557 0.550744 0.0940414
0.858686 0.550713 0.0925307
0.872404 0.550484 0.0915694
0.885023 0.55108 0.0916609
0.897231 0.553719 0.0941787
0.90927 0.55845 0.0990158
0.921019 0.566369 0.108598
0.931609 0.575723 0.12137
0.940185 0.585626 0.137041
0.946609 0.596124 0.155764
0.950957 0.605051 0.173205
0.0255589 0.360845 0.150546
0.0255131 0.360678 0.150439
0.0254673 0.360586 0.150393
0.0254368 0.360494 0.150347
0.0254368 0.360494 0.150347
0.0269474 0.361105 0.150332
0.0326696 0.364004 0.1505
0.04094 0.373541 0.151736
0.0532845 0.390478 0.15201
0.0693217 0.409644 0.149844
0.0838331 0.417975 0.140963
0.101915 0.424262 0.131975
0.131609 0.437339 0.127321
0.191684 0.460929 0.11603
0.274586 0.483864 0.101396
0.361517 0.502266 0.0945296
0.46067 0.521416 0.0949721
0.563714 0.541787 0.0994278
0.664546 0.561669 0.104067
0.746548 0.574228 0.107301
0.803708 0.582193 0.108659
0.838666 0.587076 0.108293
0.860014 0.589487 0.107988
0.877104 0.59118 0.108003
0.890974 0.592599 0.108629
0.902846 0.594293 0.110384
0.914214 0.598184 0.115419
0.925338 0.60441 0.124102
0.934966 0.612009 0.137774
0.94226 0.621424 0.157656
0.94583 0.631464 0.183291
0.945632 0.642329 0.215442
0.944472 0.652445 0.245808
0.0334936 0.381918 0.162036
0.033463 0.381826 0.16199
0.0334173 0.38175 0.161944
0.0334173 0.38175 0.161944
0.0333867 0.381674 0.161898
0.0348363 0.382162 0.161883
0.0406348 0.384512 0.161883
0.049012 0.392401 0.162829
0.0617685 0.407141 0.161837
0.0780957 0.4262 0.158724
0.0912642 0.436637 0.151476
0.10515 0.442741 0.143786
0.126726 0.452232 0.14078
0.169726 0.471061 0.134264
0.235645 0.49218 0.115572
0.311681 0.509789 0.0991226
0.408698 0.52813 0.092134
0.522301 0.550149 0.0950332
0.639124 0.576013 0.102235
0.733257 0.595621 0.109789
0.802136 0.607233 0.115373
0.844419 0.614893 0.11841
0.869932 0.62034 0.120974
0.889342 0.624582 0.123735
0.903761 0.627283 0.12665
0.915114 0.629831 0.130556
0.92549 0.634195 0.13817
0.934462 0.640208 0.150652
0.940597 0.647944 0.17145
0.942168 0.658152 0.203708
0.939788 0.669429 0.24271
0.935805 0.681849 0.287037
0.934157 0.692348 0.323445
0.0425116 0.401892 0.172305
0.0424659 0.401816 0.172259
0.0425116 0.401892 0.172305
0.0424353 0.40174 0.172229
0.0424048 0.401663 0.172183
0.0437781 0.401968 0.172122
0.0497749 0.403967 0.172076
0.0584268 0.410559 0.172808
0.0709697 0.423804 0.171389
0.0859846 0.442634 0.167422
0.098436 0.45623 0.16202
0.110231 0.463508 0.155718
0.126406 0.470375 0.152804
0.156237 0.484642 0.152514
0.206485 0.503304 0.138964
0.271809 0.520363 0.116884
0.361425 0.537316 0.0985885
0.477806 0.558083 0.0936904
0.610864 0.587015 0.100481
0.717388 0.614694 0.111833
0.795483 0.631373 0.121706
0.845487 0.641016 0.128573
0.87509 0.648783 0.134844
0.897185 0.655894 0.141878
0.912734 0.660899 0.149142
0.923445 0.664286 0.157137
0.931533 0.668421 0.169314
0.93669 0.674357 0.188815
0.937102 0.682948 0.221592
0.933288 0.694316 0.267857
0.929503 0.706508 0.315618
0.928923 0.718273 0.358862
0.931472 0.727474 0.390524
0.0523995 0.420035 0.18056
0.0523537 0.419974 0.180545
0.0522774 0.419837 0.180468
0.0522469 0.419776 0.180453
0.0522011 0.419715 0.180423
0.0535134 0.419989 0.180316
0.0595407 0.421698 0.180117
0.0678874 0.427329 0.180316
0.0797284 0.440467 0.179843
0.0932326 0.459968 0.176242
0.104982 0.475807 0.171878
0.115892 0.484886 0.166979
0.128862 0.490455 0.163912
0.150149 0.500374 0.166781
0.187533 0.516854 0.164248
0.243946 0.534478 0.146517
0.326299 0.5514 0.120241
0.439261 0.569528 0.101503
0.582483 0.597238 0.100298
0.703166 0.630823 0.113222
0.787808 0.653819 0.127337
0.844053 0.665522 0.138491
0.877195 0.674418 0.149218
0.90071 0.683665 0.16202
0.916045 0.691173 0.176516
0.924529 0.696742 0.193744
0.928313 0.702037 0.216602
0.92903 0.708721 0.246998
0.926604 0.717739 0.288899
0.924269 0.729107 0.339773
0.925658 0.739666 0.382162
0.930114 0.749218 0.415961
0.935241 0.75668 0.440391
0.0622568 0.437308 0.187823
0.0622263 0.437232 0.187793
0.0621347 0.437095 0.187732
0.062089 0.437034 0.187686
0.0620584 0.436973 0.187655
0.0633249 0.437247 0.187518
0.0689708 0.438666 0.186999
0.0765393 0.443885 0.186572
0.0873732 0.45742 0.187152
0.10013 0.478279 0.185565
0.111131 0.495628 0.182147
0.121248 0.506706 0.178851
0.131975 0.512215 0.176043
0.148486 0.518898 0.179187
0.177798 0.532692 0.185077
0.225803 0.55108 0.178515
0.30251 0.570016 0.154955
0.411215 0.586175 0.12311
0.555871 0.609415 0.105241
0.691234 0.645212 0.115343
0.782116 0.674052 0.132769
0.841718 0.688838 0.14847
0.877333 0.698558 0.164843
0.900008 0.708751 0.186572
0.912001 0.718975 0.214054
0.916503 0.728283 0.246357
0.917266 0.73611 0.282261
0.917723 0.743587 0.321035
0.919448 0.751705 0.362295
0.923354 0.760693 0.404486
0.928832 0.768917 0.437263
0.93431 0.776349 0.462547
0.939239 0.782254 0.481117
0.0717937 0.456123 0.196902
0.0717479 0.456046 0.196857
0.0716716 0.455894 0.196765
0.0717021 0.45597 0.19678
0.0716564 0.455894 0.196719
0.0727245 0.456001 0.196475
0.0780346 0.457328 0.195666
0.0848707 0.462547 0.194644
0.094728 0.476051 0.19559
0.107057 0.498085 0.196124
0.116915 0.516976 0.195224
0.125978 0.529961 0.194278
0.135775 0.537133 0.193256
0.149737 0.54229 0.195956
0.174807 0.552804 0.204471
0.215412 0.57113 0.209583
0.284672 0.591348 0.196582
0.390738 0.606912 0.158648
0.53579 0.625376 0.12079
0.679057 0.659022 0.121233
0.77847 0.69221 0.140978
0.839933 0.710842 0.16141
0.875059 0.721462 0.184802
0.894392 0.732464 0.220554
0.901427 0.744778 0.264897
0.904555 0.756802 0.309682
0.908446 0.766888 0.350698
0.914153 0.774563 0.387411
0.920867 0.781826 0.424186
0.92752 0.789319 0.459876
0.933242 0.795651 0.486122
0.938094 0.801266 0.505287
0.942489 0.805722 0.518959
0.0802777 0.476463 0.207691
0.0802472 0.476387 0.207645
0.0802472 0.476387 0.20763
0.0802014 0.47631 0.207553
0.0801556 0.476234 0.207492
0.0811322 0.47631 0.207218
0.0862898 0.477638 0.206256
0.0927901 0.48304 0.204883
0.102098 0.49659 0.205753
