example/web/assets/KOMO-v5.cube
TITLE "Generated by Resolve"
LUT_3D_SIZE 5
0.00769055 0.0182956 0
0.0919814 0.0196384 0
0.323049 0.0435187 0
0.550011 0.0733654 0
0.699977 0.11722 0
0.00788891 0.0585794 0.0027924
0.123949 0.0828565 0
0.390829 0.09337 0
0.590936 0.126329 0.000289921
0.733776 0.170581 0
0.0028687 0.220172 0.0766461
0.0232853 0.271946 0.0813153
0.599771 0.405447 0.0772106
0.760357 0.377722 0.0457618
0.878126 0.409232 0.0620737
0.0523995 0.420035 0.18056
0.0797284 0.440467 0.179843
0.326299 0.5514 0.120241
0.916045 0.691173 0.176516
0.935241 0.75668 0.440391
0.105364 0.574716 0.253254
0.124712 0.60058 0.271748
0.344549 0.720027 0.406363
0.887709 0.857816 0.559518
0.948287 0.870634 0.615091
0.0119326 0.028336 0.0441444
0.0849928 0.0320439 0.0449531
0.3411 0.0305791 0.0137789
0.600656 0.0596933 0.0126955
0.743008 0.10811 0.0137179
0.00251774 0.0763104 0.0563516
0.084184 0.0837262 0.0545357
0.389761 0.0733806 0.0145724
0.624674 0.106783 0.0124666
0.758175 0.159915 0.0170443
0.00624094 0.240818 0.132372
0.0276341 0.291051 0.135195
0.575738 0.401083 0.118669
0.767132 0.363668 0.0625162
0.89543 0.420218 0.0977493
0.065919 0.447318 0.244999
0.0924849 0.466804 0.242359
0.28426 0.560632 0.197681
0.909712 0.703609 0.226398
0.937911 0.767697 0.482704
0.116518 0.613321 0.32575
0.13283 0.627298 0.330968
0.348318 0.723049 0.42623
0.892027 0.858305 0.570993
0.948837 0.869566 0.624308
0.0200809 0.0661936 0.181796
0.0716106 0.0740826 0.235554
0.32697 0.0628824 0.197604
0.643763 0.0969863 0.163745
0.783581 0.133944 0.167041
0.0130922 0.13228 0.191897
0.0680095 0.123079 0.245884
0.394202 0.111757 0.245655
0.690669 0.141939 0.177096
0.803311 0.202594 0.211917
0.0219883 0.297917 0.280156
0.0497139 0.354147 0.349401
0.440009 0.426627 0.400732
0.743023 0.320485 0.165164
0.886351 0.465827 0.328527
0.0999771 0.509468 0.426047
0.130648 0.542901 0.457191
0.219318 0.586084 0.386633
0.878477 0.744823 0.441184
0.945663 0.799283 0.609232
0.154284 0.697276 0.529732
0.169665 0.700252 0.5299
0.380453 0.76144 0.561685
0.903304 0.871199 0.656794
0.950195 0.87332 0.672526
0.0355993 0.0688792 0.388495
0.072755 0.0713054 0.436332
0.274739 0.0451972 0.450828
0.58381 0.0916457 0.41529
0.70837 0.13756 0.413504
0.0243839 0.130068 0.40676
0.0742657 0.117922 0.487511
0.316854 0.0754406 0.533974
0.618326 0.124269 0.459678
0.718456 0.188052 0.438056
0.0399634 0.353002 0.453483
0.0668193 0.383307 0.514672
0.205676 0.350256 0.571847
0.685618 0.312551 0.582681
0.857359 0.493751 0.636835
0.138186 0.580682 0.597147
0.164553 0.616281 0.637766
0.339788 0.698848 0.714092
0.802945 0.755856 0.728252
0.938155 0.77145 0.728664
0.182818 0.735302 0.681453
0.20827 0.740276 0.694881
0.611551 0.852384 0.814511
0.843183 0.878264 0.785595
0.952911 0.894743 0.811444
0.0558022 0.0977798 0.537743
0.0956893 0.0964828 0.5691
0.297948 0.053727 0.583749
0.59707 0.0988327 0.558816
0.69839 0.133211 0.533043
0.02916 0.161456 0.548272
0.0930495 0.155184 0.608484
0.329732 0.0931106 0.661418
0.636393 0.134997 0.606836
0.707286 0.178531 0.558068
0.0598001 0.388922 0.583322
0.0802319 0.401724 0.621866
0.211658 0.370687 0.714992
0.733959 0.4103 0.785977
0.886 0.568994 0.794263
0.143343 0.613748 0.719997
0.166842 0.620829 0.736767
0.494652 0.748333 0.83415
0.849165 0.812177 0.875792
0.944106 0.831281 0.884962
0.211902 0.745647 0.774624
0.242847 0.752529 0.780056
0.6607 0.860792 0.878874
0.854856 0.892241 0.888472
0.955322 0.902388 0.896361
