example/web/assets/lut.cube
TITLE "Generated by Resolve"
LUT_3D_SIZE 9
0.00631724 0.00317388 0.00393683
0.0216068 0.00662242 0.00787366
0.209781 0.0511177 0.0398413
0.407462 0.0760815 0.0410468
0.602167 0.0755474 0.0407263
0.822293 0.0581979 0.0321202
0.977417 0.0373846 0.02121
0.977417 0.0373846 0.02121
0.977417 0.0373846 0.02121
0.0213626 0.0111543 0.00712596
0.0236667 0.0112154 0.00790417
0.182071 0.0469215 0.0387732
0.388769 0.0766003 0.0412146
0.586511 0.0759899 0.0409094
0.807904 0.0598917 0.0329442
0.97464 0.0377966 0.0214389
0.977417 0.0373846 0.02121
0.977417 0.0373846 0.02121
0.0802472 0.0460365 0.0256352
0.0800641 0.0458839 0.0255436
0.152041 0.0480354 0.0425269
0.336065 0.112108 0.0405127
0.547524 0.139727 0.0456245
0.759686 0.119921 0.0375525
0.961944 0.076997 0.0230259
0.978149 0.0531777 0.0213626
0.977829 0.0462654 0.0213016
0.149554 0.0952468 0.0325017
0.149889 0.0956283 0.0322728
0.157366 0.0915541 0.0380713
0.320836 0.0852369 0.0594034
0.482521 0.210849 0.0348821
0.700542 0.23537 0.0353857
0.923629 0.226612 0.0236057
0.98526 0.20119 0.0189059
0.984863 0.193866 0.0192264
0.110155 0.115999 0
0.108904 0.116228 0
0.117998 0.114565 0
0.313344 0.134585 0.0581521
0.481895 0.114809 0.0774701
0.625879 0.366567 0.0202792
0.853346 0.38381 0.0152895
0.995987 0.36669 0.00491341
0.996155 0.356329 0.00602731
0.0557107 0.175937 0
0.0555428 0.177539 0
0.0561837 0.17258 0
0.104295 0.170871 0
0.523873 0.208667 0.0938735
0.629618 0.192233 0.103502
0.772519 0.580911 7.62951e-05
0.985306 0.557015 3.0518e-05
1 0.542977 3.0518e-05
0.053193 0.299886 0
0.0535134 0.301793 0
0.0527504 0.296849 0
0.0516823 0.286213 0
0.253773 0.269001 0.00143435
0.688106 0.315343 0.140291
0.763577 0.355627 0.165347
0.906447 0.738674 0.0113069
0.999969 0.743389 3.0518e-05
0.0873732 0.374762 0
0.0873732 0.374777 0
0.0873732 0.374777 0
0.0870985 0.37438 0
0.115892 0.361639 0
0.454551 0.380941 0.00738537
0.740139 0.482246 0.164126
0.799161 0.514946 0.190784
0.922896 0.725505 0.127779
0.0874037 0.374823 0
0.0874037 0.374823 0
0.0874037 0.374823 0
0.0874037 0.374823 0
0.101961 0.369543 0
0.358953 0.37023 0.00210575
0.701656 0.489738 0.144442
0.789136 0.531533 0.185657
0.853727 0.584588 0.215534
0 0.0191501 0.0599069
0.0182498 0.0167239 0.0536049
0.205676 0.0492714 0.0508583
0.413993 0.0763561 0.0411536
0.609766 0.075349 0.0406043
0.831907 0.0571145 0.0315862
0.977417 0.0373846 0.02121
0.977417 0.0373846 0.02121
0.977417 0.0373846 0.02121
0.00985733 0.019852 0.0454871
0.0167391 0.0173495 0.0356909
0.18439 0.047776 0.0457465
0.394934 0.0760815 0.0420539
0.59501 0.0757916 0.0407874
0.818173 0.0587472 0.0323949
0.975723 0.037644 0.0213474
0.977417 0.0373846 0.02121
0.977417 0.0373846 0.02121
0.0785077 0.0449378 0.024918
0.0784772 0.0447547 0.0248417
0.157626 0.0484321 0.0432288
0.344488 0.113405 0.0407111
0.556313 0.138643 0.0456397
0.769299 0.11693 0.0369879
0.967926 0.0730602 0.0224918
0.978042 0.0509346 0.0213474
0.977737 0.0444648 0.0212711
0.14873 0.094316 0.0330053
0.148898 0.0946059 0.0327611
0.162295 0.0904097 0.0399786
0.326726 0.085359 0.0599222
0.491814 0.211109 0.0353399
0.710353 0.234531 0.0352789
0.93518 0.223529 0.0226902
0.985153 0.199069 0.019028
0.984741 0.191882 0.0193332
0.112856 0.115496 0
0.111711 0.115724 0
0.121157 0.114015 4.57771e-05
0.324483 0.134325 0.0590524
0.485023 0.114031 0.078233
0.63624 0.365713 0.0205081
0.86479 0.381613 0.0148165
0.996704 0.363684 0.00517281
0.995941 0.353597 0.00634775
0.0559091 0.174258 0
0.0557565 0.17583 0
0.0564431 0.170733 0
0.122454 0.170962 0.000976577
0.533288 0.206867 0.0946822
0.63122 0.193149 0.103807
0.784283 0.577493 7.62951e-05
0.993484 0.553536 3.0518e-05
1 0.540505 3.0518e-05
0.0528878 0.298085 0
0.0531472 0.299641 0
0.0524758 0.294606 0
0.0514839 0.284016 0
0.276707 0.269276 0.00479133
0.696376 0.315175 0.141741
0.764904 0.357778 0.166125
0.920119 0.744884 0.00614939
1 0.740948 3.0518e-05
0.0873579 0.374762 0
0.0873732 0.374777 0
0.0873732 0.374777 0
0.0870527 0.374304 0
0.122255 0.35967 0
0.472389 0.386847 0.0161746
0.748074 0.483665 0.168002
0.802289 0.516411 0.192004
0.93521 0.752529 0.112169
0.0874037 0.374823 0
0.0874037 0.374823 0
0.0874037 0.374823 0
0.0874037 0.374823 0
0.105867 0.367941 0
0.37998 0.372992 0.00262455
0.709453 0.493065 0.14876
0.790402 0.532464 0.186221
0.856977 0.587396 0.217029
0 0.0761578 0.179416
0 0.0676585 0.166079
0.150683 0.0396735 0.140307
0.360769 0.0563058 0.111513
0.576944 0.0543069 0.106569
0.82208 0.0460517 0.0883192
0.972976 0.034287 0.0527352
0.975555 0.0360571 0.0347906
0.976654 0.0368353 0.0267796
0 0.0798352 0.175311
0 0.073228 0.164309
0.127398 0.0459449 0.143084
0.34609 0.0555581 0.107485
0.563607 0.0550393 0.104067
0.808698 0.0472114 0.0882429
0.972412 0.0342107 0.0541695
0.976059 0.036408 0.0311284
0.977417 0.0373846 0.0212406
0.000854505 0.079469 0.120455
0.00170901 0.0749676 0.110002
0.111315 0.0978103 0.118456
0.331044 0.128573 0.109163
0.547845 0.135409 0.0917372
0.770657 0.108934 0.0623484
0.972564 0.0653391 0.0312963
0.977691 0.0456245 0.0223239
0.977584 0.0409705 0.0212406
0.0602121 0.0716259 0.00231937
0.0680095 0.0729839 0.00451667
0.111055 0.0851453 0.0339513
0.317876 0.112215 0.0854658
0.499077 0.213352 0.0493782
0.717678 0.230167 0.035584
0.944076 0.217334 0.0221866
0.984848 0.193835 0.0192569
0.984451 0.186847 0.0195621
0.090425 0.110491 0
0.0944686 0.11162 0
0.113115 0.112459 0.000259403
0.331792 0.133486 0.0598611
0.48571 0.112749 0.078645
0.644404 0.361013 0.021088
0.874098 0.376059 0.0148775
0.996262 0.357763 0.00587472
0.995544 0.348394 0.00694286
0.0563363 0.17055 0
0.05626 0.171862 0
0.0569924 0.167361 0
0.138445 0.169238 0.00187686
0.539284 0.202884 0.0945602
0.629999 0.191485 0.103273
0.7944 0.571542 9.15541e-05
0.998581 0.547463 3.0518e-05
1 0.5355 3.0518e-05
0.0522164 0.29395 0
0.0525063 0.29572 0
0.0520638 0.290898 0
0.0510872 0.279805 0
0.298833 0.268238 0.00840772
0.703929 0.31342 0.142596
0.765911 0.358755 0.166491
0.931975 0.747616 0.00155642
1 0.735103 3.0518e-05
0.0873274 0.374716 0
0.0873426 0.374731 0
0.0873426 0.374731 0
0.0869154 0.374105 0
0.12781 0.357534 0
0.489494 0.392065 0.0251316
0.751995 0.482094 0.169787
0.805127 0.515999 0.193149
0.941894 0.766842 0.101244
0.0874037 0.374823 0
0.0874037 0.374823 0
0.0874037 0.374823 0
0.0874037 0.374823 0
0.109087 0.366613 0
0.397269 0.375357 0.00323491
0.714183 0.495155 0.151064
0.791318 0.533135 0.186633
0.858656 0.58883 0.217823
0 0.129 0.277287
0 0.118944 0.2663
0 0.0849012 0.255253
0.268086 0.0560616 0.219638
0.494896 0.0681773 0.207935
0.801724 0.0312963 0.251347
0.955032 0.0211643 0.232593
0.956573 0.0223087 0.204318
0.957732 0.0231327 0.187778
0 0.138766 0.287297
0 0.132677 0.279042
0 0.0881056 0.249439
0.255146 0.0538491 0.219562
0.478264 0.0704356 0.202899
0.788495 0.0320897 0.252567
0.954772 0.0209659 0.2374
0.956115 0.021973 0.209659
0.957229 0.0227665 0.193256
0 0.202594 0.338918
0 0.197559 0.330556
0 0.172946 0.309483
0.247959 0.138018 0.236362
0.478859 0.124895 0.205478
0.741573 0.0831617 0.219944
0.959167 0.0431525 0.205112
0.958694 0.0245823 0.175494
0.960021 0.0263828 0.160937
0 0.138247 0.166049
0 0.130083 0.154528
0 0.137377 0.158785
0.24654 0.229343 0.241184
0.493217 0.259815 0.226612
0.716197 0.246052 0.199115
0.945785 0.213519 0.168078
0.980819 0.188052 0.134264
0.980987 0.180377 0.117067
4.57771e-05 0.101274 0.0500954
0.000183108 0.0998703 0.043122
0.00262455 0.0923781 0.0242618
0.253544 0.210254 0.123903
0.470603 0.233707 0.187793
0.655146 0.368765 0.1411
0.880964 0.370474 0.100618
0.995239 0.349065 0.0581064
0.994751 0.340749 0.0412451
0 0.170993 0.0417945
0.00077821 0.169924 0.0333715
0.00433356 0.160845 0.0178073
0.078233 0.187518 0.00679026
0.508797 0.243839 0.134478
0.625879 0.205737 0.124559
0.801495 0.561593 0.0099794
0.997635 0.538476 3.0518e-05
1 0.527092 3.0518e-05
0.0117952 0.284825 0.00335698
0.014725 0.286198 0.00149538
0.0208286 0.280842 0
0.0340276 0.271061 0
0.312367 0.27068 0.0132143
0.708751 0.309712 0.142702
0.765637 0.356817 0.165911
0.939239 0.741772 3.0518e-05
1 0.727199 3.0518e-05
0.0846418 0.374929 0.00138857
0.0853895 0.374853 0.000808728
0.086656 0.374472 0.000137331
0.0863966 0.373342 0
0.131441 0.355184 0
0.503761 0.394583 0.0335851
0.755261 0.478233 0.171176
0.807462 0.514214 0.194095
0.950088 0.7841 0.0872511
0.0872358 0.374853 0
0.0874037 0.374823 0
0.0874037 0.374823 0
0.0874037 0.374823 0
0.110536 0.365988 0
0.407675 0.376852 0.00376898
0.717083 0.496422 0.152392
0.791791 0.533471 0.186877
0.859052 0.589197 0.217975
0 0.169635 0.342031
0 0.158267 0.33698
0 0.110155 0.311452
0.0500496 0.0940108 0.395727
0.379705 0.0684062 0.296452
0.590875 0.0864881 0.292714
0.874037 0.0402686 0.388205
0.910552 0.0300755 0.384817
0.928313 0.0249332 0.379248
0 0.173114 0.344778
0 0.16936 0.340734
0 0.11136 0.307179
0.0312963 0.0961471 0.395163
0.372122 0.0664836 0.298817
0.568505 0.0884413 0.284962
0.864698 0.0428321 0.388434
0.904295 0.0321813 0.388373
0.922087 0.0269627 0.382803
0 0.250904 0.413977
0 0.248722 0.411749
0 0.208057 0.381399
0.00321965 0.158145 0.408988
0.354665 0.110704 0.307622
0.558618 0.11165 0.277806
0.911192 0.0401007 0.38851
0.939101 0.021622 0.378912
0.951507 0.0181582 0.370504
0 0.280507 0.324498
0 0.27631 0.321035
0 0.279362 0.334813
0.104326 0.284703 0.42414
0.368154 0.251621 0.356542
0.618418 0.242725 0.327535
0.930587 0.195148 0.373861
0.966369 0.170565 0.345922
0.966339 0.163226 0.329061
0 0.232776 0.224491
0 0.226734 0.218067
0 0.209705 0.203052
0 0.277333 0.26894
0.400946 0.372869 0.380667
0.650965 0.398032 0.361105
0.876402 0.375021 0.331853
0.986358 0.347066 0.299733
0.986969 0.33872 0.281743
0 0.25275 0.211566
0 0.25005 0.206332
0 0.23743 0.191989
0 0.240299 0.179934
0.386618 0.366018 0.258701
0.621942 0.388128 0.31458
0.805844 0.54078 0.264546
0.993088 0.52726 0.228046
0.996735 0.516503 0.20499
0 0.328634 0.186923
0 0.327749 0.180514
0 0.317845 0.164431
0 0.298833 0.137545
0.198505 0.368765 0.144335
0.656703 0.405798 0.244205
0.78117 0.40763 0.247852
0.943236 0.726787 0.139696
0.998672 0.71487 0.109941
0.0280613 0.409262 0.127062
0.0347906 0.407568 0.119677
0.0509041 0.402945 0.103273
0.0609598 0.394781 0.082475
0.147143 0.417182 0.0892805
0.457313 0.434195 0.110079
0.763912 0.492119 0.203433
0.817411 0.521767 0.212345
0.960418 0.80444 0.0831159
0.033753 0.407324 0.11429
0.0408942 0.405386 0.107927
0.0563363 0.400702 0.0927749
0.066453 0.394125 0.0720378
0.117739 0.404974 0.0642252
0.362921 0.418097 0.0735027
0.715236 0.502281 0.160479
0.79321 0.534951 0.188693
0.859541 0.589654 0.218173
0 0.167285 0.378195
0 0.165835 0.376959
0 0.136126 0.380179
0 0.127581 0.433845
0.280064 0.092668 0.438605
0.472663 0.0787518 0.371511
0.532357 0.0921645 0.334829
0.536309 0.092546 0.318029
0.539071 0.0968032 0.307134
0 0.170642 0.37818
0 0.170138 0.376852
0 0.137316 0.378653
0 0.128847 0.426734
0.259037 0.0963302 0.447654
0.467674 0.0768292 0.376867
0.5308 0.0919966 0.341604
0.53402 0.0941176 0.324483
0.535439 0.0973068 0.312856
0 0.259541 0.442512
0 0.259846 0.442603
0 0.221759 0.424262
0 0.175326 0.434394
0.175418 0.129992 0.475319
0.449104 0.0858167 0.37705
0.534432 0.0942397 0.326314
0.536858 0.0975357 0.309087
0.542412 0.0999619 0.303059
0 0.339086 0.42034
0 0.337819 0.417334
0.00144961 0.33518 0.430259
0.060441 0.307607 0.498589
0.145769 0.255375 0.536248
0.444221 0.204227 0.437354
0.585214 0.212863 0.360449
0.618311 0.20296 0.342473
0.641245 0.195254 0.347158
0 0.354025 0.353918
0 0.351507 0.350088
0 0.343603 0.341909
0 0.395407 0.424796
0.246952 0.402792 0.548653
0.466377 0.369177 0.514809
0.680629 0.371328 0.445274
0.860487 0.348791 0.486458
0.881117 0.339269 0.486183
0 0.36437 0.331289
0 0.362112 0.328542
0 0.353216 0.320073
0 0.361807 0.328923
0.0133211 0.44361 0.427832
0.530846 0.526879 0.552697
0.780972 0.546975 0.540993
0.965393 0.528801 0.519036
0.970779 0.517617 0.499779
0 0.39884 0.34583
0 0.397086 0.343038
0 0.388235 0.332921
0 0.37293 0.31693
0 0.432929 0.367788
0.436759 0.528389 0.421958
0.754192 0.57203 0.498314
0.938689 0.702754 0.457328
0.986572 0.696239 0.433371
0 0.444007 0.340108
0 0.443442 0.335882
0 0.441306 0.324224
0 0.436942 0.306294
0 0.471656 0.312337
0.292073 0.554391 0.330236
0.7066 0.599512 0.375341
0.86511 0.63241 0.402106
0.979049 0.842634 0.352117
0 0.444968 0.336446
0 0.444312 0.332296
0 0.442435 0.319661
0 0.43975 0.300359
0 0.457725 0.288487
0.251194 0.544213 0.292012
0.609552 0.589822 0.315267
0.848112 0.639063 0.343221
0.904356 0.66891 0.343648
0 0.165347 0.379797
0 0.162463 0.379431
0 0.141054 0.39472
0 0.13727 0.442863
0.175952 0.117327 0.514336
0.449516 0.0764935 0.443
0.50959 0.0810254 0.431891
0.50959 0.0810254 0.431891
0.50959 0.0810254 0.431891
0 0.165347 0.379797
0 0.164706 0.379721
0 0.141756 0.392279
0 0.137484 0.43798
0.160449 0.118593 0.517006
0.443198 0.0782025 0.445594
0.50959 0.0810254 0.431891
0.50959 0.0810254 0.431891
0.50959 0.0810254 0.431891
0 0.240955 0.431434
0 0.239322 0.430762
0 0.202686 0.425544
0 0.173236 0.449821
0.0274662 0.140032 0.540825
0.402579 0.0906539 0.46305
0.509239 0.0809491 0.431922
0.50959 0.0810254 0.431891
0.50959 0.0810254 0.431891
0.00537118 0.329305 0.47863
0.00724804 0.328527 0.478874
0.0261387 0.319219 0.489006
0 0.297642 0.524681
0.0480659 0.262592 0.580179
0.299367 0.21117 0.580987
0.534249 0.165225 0.494316
0.544594 0.149966 0.479225
0.542138 0.144839 0.474464
0 0.389639 0.441489
0 0.389776 0.441398
0 0.386892 0.444053
0.000549325 0.416831 0.521828
0.209552 0.401694 0.614878
0.302937 0.367071 0.671992
0.55259 0.310689 0.60325
0.623102 0.291279 0.559625
0.620172 0.286076 0.551308
0 0.422904 0.421332
0 0.423056 0.421332
0 0.4215 0.421759
0 0.442496 0.454994
0.0309453 0.508629 0.569207
0.399039 0.529 0.695338
0.590784 0.498436 0.703746
0.720943 0.474052 0.644526
0.717769 0.465934 0.629236
0 0.452247 0.419303
0 0.452476 0.419257
0 0.450553 0.418036
0 0.446418 0.415
0 0.515572 0.491905
0.0895705 0.602975 0.599741
0.645701 0.684871 0.751965
0.825681 0.694102 0.728389
0.856092 0.68809 0.717571
0 0.483375 0.430655
0 0.482872 0.429816
0 0.480949 0.427298
0 0.476661 0.422156
0 0.515221 0.456703
0.000427253 0.604318 0.538476
0.474083 0.718166 0.655543
0.854871 0.800717 0.734218
0.969345 0.854597 0.733272
0 0.484092 0.430365
0 0.483528 0.429541
0 0.481895 0.427085
0 0.479088 0.422934
0 0.497414 0.437934
0 0.594324 0.520333
0.359121 0.702312 0.596689
0.78996 0.793774 0.645502
0.936019 0.825467 0.653742
0 0.165347 0.379797
0 0.162341 0.379416
0 0.140795 0.394324
0 0.137316 0.443641
0.189944 0.116197 0.51191
0.453864 0.0767376 0.442222
0.50959 0.0810254 0.431891
0.50959 0.0810254 0.431891
0.50959 0.0810254 0.431891
0 0.165347 0.379797
0 0.164858 0.379736
0 0.141299 0.391516
0 0.137392 0.441016
0.174899 0.117311 0.514244
0.448615 0.0775616 0.4439
0.50959 0.0810254 0.431891
0.50959 0.0810254 0.431891
0.50959 0.0810254 0.431891
0 0.235554 0.428214
0 0.233326 0.427008
0 0.194217 0.419608
0 0.166827 0.447517
0.0506142 0.134279 0.536233
0.412451 0.0852979 0.456931
0.50959 0.0810254 0.431891
0.50959 0.0810254 0.431891
0.50959 0.0810254 0.431891
0.00694286 0.324895 0.479347
0.00927749 0.323919 0.47982
0.0232242 0.313893 0.490455
0 0.289647 0.519463
0.0412451 0.252964 0.578943
0.311772 0.201526 0.57145
0.537377 0.156146 0.487022
0.539605 0.1411 0.47538
0.536858 0.135897 0.471885
0 0.387839 0.442939
0 0.387717 0.443153
0 0.384634 0.445884
0.00924697 0.412146 0.525521
0.197299 0.393362 0.616053
0.301717 0.355657 0.670176
0.553017 0.299138 0.599557
0.615244 0.278004 0.564874
0.611551 0.271687 0.560708
0 0.421668 0.421683
0 0.421714 0.421683
0 0.419974 0.422141
0 0.444663 0.461051
0.0524605 0.507698 0.578729
0.395331 0.520989 0.705409
0.57348 0.482826 0.722316
0.70959 0.451484 0.67332
0.704677 0.441199 0.667872
0 0.450767 0.419089
0 0.450935 0.41915
0 0.449378 0.418936
0 0.447318 0.419776
0 0.524117 0.511986
0.144823 0.612375 0.633021
0.630182 0.677806 0.792721
0.794232 0.66305 0.783505
0.805097 0.649058 0.775616
0 0.484962 0.433371
0 0.485023 0.433417
0 0.484474 0.433066
0 0.482658 0.431861
0 0.529503 0.479286
0 0.619196 0.577844
0.415152 0.730632 0.722362
0.826261 0.841917 0.866667
0.903563 0.843397 0.878233
0 0.487221 0.434882
0 0.487221 0.434882
0 0.487221 0.434882
0 0.487221 0.434882
0 0.513283 0.45951
0 0.609232 0.556786
0.168383 0.715908 0.669062
0.728344 0.858778 0.839567
0.954421 0.949248 0.931777
0 0.165347 0.379797
0 0.160922 0.379522
0 0.140352 0.395636
0 0.13698 0.44979
0.213504 0.114107 0.507546
0.462226 0.0759136 0.43978
0.50959 0.0810254 0.431891
0.50959 0.0810254 0.431891
0.50959 0.0810254 0.431891
0 0.165347 0.379797
0 0.163714 0.379767
0 0.140749 0.393347
0 0.137102 0.447074
0.201938 0.115175 0.509621
0.458854 0.0758373 0.440406
0.50959 0.0810254 0.431891
0.50959 0.0810254 0.431891
0.50959 0.0810254 0.431891
0 0.234409 0.427497
0 0.231601 0.425895
0 0.190326 0.418387
0 0.164141 0.451286
0.087602 0.131609 0.532174
0.425299 0.0821698 0.452049
0.50959 0.0810254 0.431891
0.50959 0.0810254 0.431891
0.50959 0.0810254 0.431891
0.00672923 0.324071 0.479408
0.00920119 0.322698 0.479942
0.0241398 0.31165 0.492638
0 0.285924 0.520745
0.0589609 0.248478 0.580957
0.332479 0.196201 0.563485
0.541009 0.153292 0.48423
0.538643 0.139223 0.474113
0.535973 0.134203 0.47071
0 0.38735 0.44329
0 0.387152 0.44361
0 0.383902 0.446387
0.0169528 0.411719 0.531502
0.199039 0.390692 0.620478
0.317571 0.349447 0.669505
0.569528 0.294789 0.591348
0.613779 0.275517 0.563256
0.609873 0.268757 0.558801
0 0.421424 0.421775
0 0.421378 0.421759
0 0.419577 0.422248
0 0.449622 0.468818
0.0778973 0.509712 0.586633
0.401419 0.519036 0.712352
0.587625 0.477211 0.717647
0.707713 0.447578 0.671168
0.703258 0.43827 0.666239
0 0.450446 0.419013
0 0.450523 0.419089
0 0.44889 0.41886
0 0.447684 0.42063
0 0.529671 0.519265
0.195254 0.618128 0.641917
0.64863 0.678065 0.79382
0.796719 0.65893 0.781262
0.803601 0.646113 0.774014
0 0.484825 0.43328
0 0.484855 0.43331
0 0.484291 0.432944
0 0.482292 0.431632
0 0.536095 0.486213
0 0.625498 0.585153
0.457938 0.739361 0.736828
0.841657 0.843336 0.870024
0.901579 0.839551 0.876265
0 0.487221 0.434882
0 0.487221 0.434882
0 0.487221 0.434882
0 0.487221 0.434882
0 0.520653 0.46656
0 0.614954 0.562737
0.225467 0.724483 0.680415
0.75555 0.86836 0.848783
0.955001 0.949477 0.932357
