example/web/assets/lut.cube
TITLE "Generated by Resolve"
LUT_3D_SIZE 33
0.00631724 0.00317388 0.00393683
0.00631724 0.00317388 0.00393683
0.00631724 0.00317388 0.00393683
0.00726329 0.0033875 0.00418097
0.0216068 0.00662242 0.00787366
0.056199 0.0150149 0.0175326
0.103029 0.026276 0.029099
0.156558 0.0389258 0.0365759
0.209781 0.0511177 0.0398413
0.261311 0.0605173 0.0411841
0.311925 0.0679026 0.0413825
0.360555 0.0730755 0.0411994
0.407462 0.0760815 0.0410468
0.453513 0.0773022 0.0411688
0.50103 0.0773632 0.0414435
0.550057 0.0767834 0.0413672
0.602167 0.0755474 0.0407263
0.656672 0.0733349 0.0396277
0.711254 0.0695506 0.0377661
0.766339 0.0644083 0.0351873
0.822293 0.0581979 0.0321202
0.879606 0.0511025 0.0285344
0.928893 0.0444953 0.0250248
0.964691 0.0393072 0.0222324
0.977417 0.0373846 0.02121
0.977417 0.0373846 0.02121
0.977417 0.0373846 0.02121
0.977417 0.0373846 0.02121
0.977417 0.0373846 0.02121
0.977417 0.0373846 0.02121
0.977417 0.0373846 0.02121
0.977417 0.0373846 0.02121
0.977417 0.0373846 0.02121
0.00631724 0.00317388 0.00393683
0.00631724 0.00317388 0.00393683
0.00631724 0.00317388 0.00393683
0.00723278 0.0033875 0.00418097
0.0216068 0.00662242 0.00787366
0.0570535 0.0152438 0.0177768
0.104021 0.0264897 0.0292973
0.157 0.0390326 0.0366064
0.210376 0.0512398 0.0398718
0.262303 0.0606699 0.0411841
0.312657 0.0679942 0.0413825
0.361105 0.0731212 0.0411994
0.408698 0.0761273 0.0410468
0.455085 0.0773175 0.0411841
0.502449 0.0773632 0.0414588
0.551553 0.0767529 0.0413519
0.603723 0.0755169 0.0406958
0.658106 0.0732586 0.0395972
0.712718 0.0694438 0.037705
0.768734 0.0641794 0.0350652
0.824765 0.0579232 0.0319677
0.881529 0.0508583 0.0284123
0.93106 0.0441901 0.0248569
0.966094 0.0390936 0.0221256
0.977417 0.0373846 0.02121
0.977417 0.0373846 0.02121
0.977417 0.0373846 0.02121
0.977417 0.0373846 0.02121
0.977417 0.0373846 0.02121
0.977417 0.0373846 0.02121
0.977417 0.0373846 0.02121
0.977417 0.0373846 0.02121
0.977417 0.0373846 0.02121
0.00631724 0.00317388 0.00393683
0.00631724 0.00317388 0.00393683
0.00631724 0.00317388 0.00393683
0.0065919 0.00323491 0.00401312
0.0176394 0.00570687 0.00683604
0.0495003 0.0132906 0.0155032
0.0958419 0.0245365 0.0274052
0.149355 0.0374609 0.0359503
0.204273 0.0499886 0.0396124
0.25684 0.0597543 0.0410925
0.307836 0.0673533 0.0413977
0.357015 0.0727703 0.0412146
0.405081 0.0759899 0.0410468
0.452323 0.0772869 0.0411688
0.49987 0.0773785 0.0414588
0.549569 0.0767987 0.0413977
0.601419 0.0755932 0.0407416
0.656596 0.0733349 0.0396429
0.711101 0.0695811 0.0377813
0.766781 0.0643778 0.035172
0.82295 0.0581369 0.0320897
0.880018 0.0510567 0.0285039
0.930526 0.0442664 0.0249027
0.965789 0.0391394 0.0221408
0.977127 0.0374304 0.0212406
0.977417 0.0373846 0.02121
0.977417 0.0373846 0.02121
0.977417 0.0373846 0.02121
0.977417 0.0373846 0.02121
0.977417 0.0373846 0.02121
0.977417 0.0373846 0.02121
0.977417 0.0373846 0.02121
0.977417 0.0373846 0.02121
0.0110933 0.00570687 0.00489815
0.0112306 0.00578317 0.00492866
0.0113527 0.00584421 0.00494392
0.011017 0.00567636 0.00488289
0.017258 0.00682078 0.0065919
0.042649 0.0124819 0.0135042
0.0857099 0.0228885 0.0252689
0.137697 0.0353094 0.0349432
0.193805 0.047776 0.0390936
0.247425 0.0581369 0.0408942
0.299016 0.0661631 0.0413977
0.349264 0.0720684 0.0412299
0.398123 0.0756542 0.0410468
0.445274 0.0771649 0.0411383
0.492729 0.0774243 0.0414282
0.542641 0.076936 0.041474
0.594949 0.0757763 0.0408179
0.649622 0.0736553 0.0398108
0.703883 0.0701305 0.038056
0.760403 0.0650339 0.0355077
0.81651 0.0588998 0.0324712
0.873472 0.0519112 0.0289311
0.926406 0.044831 0.0251926
0.962921 0.0395514 0.022385
0.976043 0.037583 0.0213321
0.977417 0.0373846 0.02121
0.977417 0.0373846 0.02121
0.977417 0.0373846 0.02121
0.977417 0.0373846 0.02121
0.977417 0.0373846 0.02121
0.977417 0.0373846 0.02121
0.977417 0.0373846 0.02121
0.977417 0.0373846 0.02121
0.0213626 0.0111543 0.00712596
0.0214694 0.0112001 0.00714122
0.0217746 0.011368 0.00721752
0.0213169 0.0111391 0.00712596
0.0236667 0.0112154 0.00790417
0.0413214 0.0146487 0.0132143
0.0791943 0.0233463 0.0241093
0.127993 0.0348516 0.0339666
0.182071 0.0469215 0.0387732
0.236118 0.0582437 0.0409247
0.288716 0.0670634 0.0415808
0.339223 0.073167 0.0414282
0.388769 0.0766003 0.0412146
0.436774 0.0774395 0.0411383
0.484794 0.0774548 0.0413977
0.534463 0.0770428 0.0415045
0.586511 0.0759899 0.0409094
0.641398 0.0740368 0.0399939
0.695705 0.0707561 0.0383612
0.751522 0.0659342 0.0359503
0.807904 0.0598917 0.0329442
0.864973 0.0529946 0.0294804
0.920104 0.0456855 0.0256504
0.958648 0.040177 0.0227054
0.97464 0.0377966 0.0214389
0.977417 0.0373846 0.02121
0.977417 0.0373846 0.02121
0.977417 0.0373846 0.02121
0.977417 0.0373846 0.02121
0.977417 0.0373846 0.02121
0.977417 0.0373846 0.02121
0.977417 0.0373846 0.02121
0.977417 0.0373846 0.02121
0.035111 0.0183413 0.0104219
0.0352941 0.0184329 0.0104677
0.0355383 0.0185702 0.0105287
0.0353094 0.0184482 0.0104829
0.03505 0.0180056 0.0105135
0.0446021 0.0193179 0.0138705
0.075349 0.0252079 0.0236362
0.12015 0.0356298 0.0334936
0.170794 0.0484016 0.0383307
0.223072 0.0604715 0.0409094
0.275456 0.0709239 0.0418555
0.327077 0.0788128 0.041886
0.377768 0.0833143 0.0417639
0.426886 0.0841382 0.0416724
0.474647 0.083299 0.041886
0.524193 0.081651 0.0419623
0.575631 0.0788434 0.0413062
0.629541 0.0749371 0.0402838
0.683879 0.0716106 0.0387732
0.73962 0.0670634 0.0365148
0.795941 0.0612345 0.0336156
0.852232 0.0545815 0.0302892
0.909331 0.0471351 0.0264286
0.952377 0.0410925 0.0231937
0.972457 0.0381323 0.0216068
0.977417 0.0373846 0.02121
0.977417 0.0373846 0.02121
0.977417 0.0373846 0.02121
0.977417 0.0373846 0.02121
0.977417 0.0373846 0.02121
0.977417 0.0373846 0.02121
0.977417 0.0373846 0.02121
0.977417 0.0373846 0.02121
0.0502174 0.0263828 0.014374
0.0505379 0.0265507 0.0144656
0.0509804 0.0267948 0.0145876
0.0506905 0.0266575 0.0145113
0.0495003 0.0260166 0.0142061
0.0533303 0.0261234 0.0158846
0.0755169 0.0292515 0.0241245
0.115694 0.0367285 0.0346075
0.160998 0.0489967 0.0386969
0.209598 0.0632944 0.0401617
0.26157 0.0755016 0.0416266
0.313573 0.0867475 0.0419928
0.365164 0.0950179 0.042237
0.416281 0.0995346 0.0426184
0.466239 0.100374 0.0432593
0.515694 0.097734 0.0435187
0.566705 0.0927443 0.0427558
0.619257 0.0852064 0.0413062
0.672831 0.0800031 0.0396429
0.727733 0.0739757 0.0373846
0.783291 0.0667887 0.0345006
0.839704 0.0589761 0.0311742
0.897017 0.0503243 0.0273594
0.94342 0.0428016 0.0239109
0.969406 0.0385901 0.0218509
0.977417 0.0373846 0.02121
0.977417 0.0373846 0.02121
0.977417 0.0373846 0.02121
0.977417 0.0373846 0.02121
0.977417 0.0373846 0.02121
0.977417 0.0373846 0.02121
0.977417 0.0373846 0.02121
0.977417 0.0373846 0.02121
0.0655985 0.0357519 0.0193942
0.0658427 0.0359197 0.019501
0.0661479 0.0361334 0.0196231
0.0659342 0.0360113 0.0195621
0.0651255 0.035523 0.0192874
0.0654765 0.0349584 0.0196078
0.0771191 0.0356909 0.0244755
0.112215 0.0393835 0.0354314
0.155581 0.047364 0.0411536
0.199725 0.0637827 0.0410773
0.247745 0.0799878 0.040589
0.29897 0.0927596 0.0413062
0.351354 0.104646 0.0417945
0.403723 0.11339 0.0426184
0.455467 0.118471 0.0439002
0.506615 0.11986 0.0450752
0.558343 0.118303 0.0449226
0.610636 0.114092 0.0436561
0.662608 0.107774 0.0417029
0.716396 0.0991073 0.0391394
0.771679 0.0886702 0.0360113
0.826062 0.0771191 0.032578
0.882582 0.0645304 0.028687
0.933577 0.0520333 0.0248417
0.966018 0.0440986 0.0222171
0.977584 0.0410315 0.0212558
0.977539 0.0399634 0.0212406
0.977508 0.039292 0.0212253
0.977493 0.0389563 0.0212253
0.977478 0.0387121 0.0212253
0.977478 0.0385595 0.0212253
0.977462 0.0383001 0.02121
0.977447 0.0379187 0.02121
0.0802472 0.0460365 0.0256352
0.0804761 0.0461891 0.025742
0.0808881 0.046479 0.0259251
0.0809186 0.0465095 0.0259403
0.0800641 0.0458839 0.0255436
0.0789502 0.0451057 0.0250553
0.0832227 0.0444495 0.026627
0.110262 0.0452888 0.0350347
0.152041 0.0480354 0.0425269
0.194385 0.0584573 0.0453803
0.237293 0.0803388 0.0420233
0.284474 0.0991073 0.0399329
0.336065 0.112108 0.0405127
0.388769 0.123995 0.041413
0.442435 0.133165 0.0430457
0.495048 0.138201 0.0449378
0.547524 0.139727 0.0456245
0.59997 0.138399 0.0449378
0.652125 0.134493 0.043061
0.705653 0.128389 0.040528
0.759686 0.119921 0.0375525
0.813382 0.110521 0.0342107
0.869215 0.0998703 0.0303655
0.922194 0.087892 0.0263218
0.961944 0.076997 0.0230259
0.978836 0.0683452 0.0215
0.978515 0.0612039 0.0214542
0.978256 0.0555734 0.0213931
0.978149 0.0531777 0.0213626
0.978073 0.0513008 0.0213474
0.977981 0.0497902 0.0213321
0.977905 0.0480659 0.0213016
0.977829 0.0462654 0.0213016
0.0961013 0.0566873 0.0319982
0.0965286 0.0569619 0.0321355
0.0969558 0.0572366 0.0322576
0.0968643 0.0571756 0.0322423
0.0962234 0.0567636 0.0320287
0.095079 0.0560311 0.031632
0.0951553 0.0550088 0.031693
0.109361 0.0540627 0.0353094
0.149035 0.0540475 0.0422217
0.190158 0.0568399 0.0474708
0.233478 0.0701305 0.0486152
0.274052 0.0993973 0.0419165
0.321248 0.12076 0.038819
0.373068 0.133669 0.0394751
0.426398 0.145342 0.0409705
0.480186 0.153979 0.0431678
0.534234 0.159365 0.0446937
0.587625 0.161334 0.0448157
0.639567 0.160281 0.0434272
0.69221 0.156573 0.0411841
0.745708 0.150988 0.0384375
0.799359 0.143877 0.0353399
0.854414 0.135439 0.0317235
0.910597 0.125505 0.0274968
0.957732 0.114961 0.0235447
0.980438 0.105547 0.0215305
0.980117 0.0982681 0.0215915
0.979858 0.0921492 0.0215915
0.979675 0.0878004 0.0215915
0.979583 0.0853132 0.0215915
0.979477 0.0831922 0.021561
0.979416 0.081529 0.0215457
0.979309 0.0790417 0.0215457
0.114687 0.0684825 0.0364385
0.115007 0.0686809 0.0364691
0.115724 0.0691539 0.0365301
0.115679 0.0691234 0.0365301
0.114839 0.0686198 0.0364385
0.113939 0.0680858 0.036347
0.112108 0.0669871 0.0361334
0.116136 0.065568 0.0369268
0.149432 0.0640574 0.0423285
0.187625 0.0635691 0.047303
0.231556 0.0660716 0.0518807
0.274235 0.0832227 0.0511482
0.311437 0.120821 0.0412146
0.356985 0.144457 0.0373083
0.409659 0.15697 0.0383307
0.463661 0.16791 0.0403296
0.518502 0.176257 0.042298
0.572824 0.181308 0.0430762
0.625757 0.183276 0.0424811
0.678752 0.182513 0.0407721
0.731929 0.179507 0.0384375
0.784894 0.174884 0.0356603
0.84004 0.169009 0.0322576
0.896376 0.160983 0.0282292
0.949706 0.151492 0.0238499
0.98146 0.142473 0.0210574
0.981826 0.135821 0.0211337
0.981567 0.130358 0.0212406
0.981353 0.125521 0.0213474
0.981262 0.123598 0.0213626
0.981186 0.121721 0.0213626
0.981094 0.119829 0.0213931
0.980987 0.117662 0.0214237
0.134203 0.0818341 0.0367132
0.134554 0.0821088 0.0366522
0.134966 0.0824445 0.0365759
0.135042 0.0825055 0.0365606
0.13463 0.0822003 0.0365606
0.13373 0.0815137 0.0366217
0.132006 0.0802319 0.0367132
0.132616 0.0788281 0.0373846
0.152758 0.077409 0.0421302
0.19086 0.0755169 0.0476692
0.231662 0.0739452 0.0519112
0.275029 0.0757 0.0557412
0.315022 0.0966354 0.0530861
0.347921 0.145174 0.0401617
0.393194 0.17142 0.0356603
0.446097 0.18265 0.0369573
0.500755 0.192584 0.0387732
0.555932 0.200336 0.0399634
0.609751 0.205371 0.0400854
0.663172 0.207691 0.0391852
0.716793 0.207843 0.0374456
0.770016 0.206348 0.0351415
0.824292 0.202853 0.0322271
0.881315 0.197116 0.0284428
0.938216 0.189471 0.0238956
0.977615 0.181155 0.0204471
0.983764 0.174456 0.0200504
0.983459 0.168658 0.020264
0.983215 0.163653 0.0204166
0.983093 0.161471 0.0204776
0.983001 0.159731 0.0205386
0.98291 0.157992 0.0205997
0.982803 0.15613 0.0206607
0.149554 0.0952468 0.0325017
0.149752 0.0954757 0.0323644
0.150149 0.0959487 0.0320897
0.15024 0.0960555 0.0320287
0.149889 0.0956283 0.0322728
0.14934 0.095079 0.0325475
0.148318 0.0940871 0.0329747
0.147845 0.0929732 0.0337224
0.157366 0.0915541 0.0380713
0.196414 0.0902113 0.0480659
0.237476 0.0872816 0.052369
0.278386 0.0848707 0.0557565
0.320836 0.0852369 0.0594034
0.355764 0.111925 0.0549783
0.383886 0.172976 0.0387427
0.428809 0.200763 0.0337835
0.482521 0.210849 0.0348821
0.537224 0.219577 0.0360266
0.591501 0.22681 0.0365759
0.646265 0.232181 0.0363622
0.700542 0.23537 0.0353857
0.753994 0.236362 0.033753
0.808194 0.235401 0.0314031
0.865507 0.232242 0.0280156
0.923629 0.226612 0.0236057
0.970901 0.219379 0.0195315
0.985748 0.212055 0.0183871
0.985611 0.206729 0.0186465
0.98526 0.20119 0.0189059
0.985138 0.198978 0.0189975
0.985077 0.197711 0.0190585
0.98497 0.195941 0.0191348
0.984863 0.193866 0.0192264
0.156527 0.105837 0.0249485
0.156481 0.106081 0.0246128
0.156435 0.106279 0.0243534
0.156435 0.10634 0.0242924
0.156405 0.106035 0.0246128
0.156374 0.105776 0.0249332
0.156329 0.10518 0.0256046
0.156237 0.10454 0.0262913
0.159106 0.10367 0.0286107
0.195727 0.10399 0.0436561
0.243351 0.102708 0.0527352
0.285649 0.099321 0.0560006
0.32697 0.0956588 0.059266
0.365423 0.0943465 0.0630198
0.39498 0.128603 0.0566415
0.418891 0.203967 0.037232
0.463905 0.233677 0.0313725
0.518135 0.24239 0.0318914
0.573114 0.250919 0.0323491
0.628107 0.257893 0.0326238
0.682994 0.263355 0.0323644
0.737057 0.267262 0.0313725
0.791852 0.269108 0.0295872
0.8486 0.268376 0.0268101
0.906706 0.264836 0.022858
0.959182 0.259159 0.0184634
0.986328 0.251957 0.0161135
0.988144 0.246311 0.0162814
0.987762 0.24065 0.0166781
0.987594 0.238285 0.0168307
0.987488 0.236576 0.0169375
0.987366 0.234745 0.0170443
0.987259 0.233112 0.0171359
0.152651 0.111498 0.0142214
0.152392 0.111528 0.013901
0.152148 0.111559 0.0135805
0.151934 0.111589 0.0133211
0.152209 0.111498 0.0135958
0.152514 0.11136 0.0139315
0.153063 0.111116 0.014725
0.153643 0.110857 0.0156405
0.15523 0.110597 0.0172274
0.176913 0.112215 0.0283513
0.235843 0.1149 0.049546
0.288548 0.11429 0.0561532
0.334356 0.110628 0.0592508
0.3729 0.10547 0.0628824
0.40766 0.102174 0.067277
0.431235 0.146975 0.0583658
0.453544 0.239521 0.0349584
0.499931 0.270909 0.028336
0.553872 0.278508 0.028336
0.609018 0.286336 0.0285344
0.664897 0.293721 0.0286107
0.719478 0.299413 0.0281682
0.774212 0.303105 0.026978
0.831205 0.304509 0.0246891
0.889479 0.303273 0.0211795
0.944808 0.298573 0.0168917
0.982483 0.292088 0.0136263
0.990753 0.286488 0.0131838
0.990539 0.2813 0.0135958
0.990295 0.277897 0.0138857
0.990158 0.275868 0.0140383
0.990066 0.274464 0.0141451
0.989929 0.272404 0.014313
0.137881 0.112963 0.0031281
0.137072 0.113024 0.00300603
0.136355 0.113069 0.00288396
0.136156 0.113085 0.00285344
0.136721 0.113054 0.00292973
0.137819 0.112978 0.00311284
0.13901 0.11281 0.00360113
0.140658 0.112612 0.00437934
0.142809 0.112367 0.00535592
0.150149 0.113146 0.00935378
0.204944 0.120943 0.0348821
0.27483 0.124758 0.054078
0.332967 0.124804 0.0593423
0.378927 0.120516 0.0628214
0.416175 0.11339 0.0670634
0.446525 0.108751 0.0720836
0.465797 0.168795 0.0598611
0.487694 0.278019 0.0325017
0.534234 0.312261 0.0247044
0.589426 0.319951 0.0244144
0.645243 0.327703 0.0244755
0.700999 0.334752 0.0243381
0.75671 0.339986 0.0235294
0.813519 0.342641 0.0217136
0.871794 0.34255 0.018677
0.929503 0.339712 0.0144808
0.977203 0.334249 0.0103761
0.992386 0.328817 0.00927749
0.993393 0.323064 0.00973526
0.993347 0.319768 0.0100252
0.993179 0.317449 0.0102541
0.993027 0.315435 0.0104524
0.992889 0.313359 0.0106508
0.110155 0.115999 0
0.109407 0.116136 0
0.108278 0.11635 0
0.107912 0.116426 0
0.108904 0.116228 0
0.110414 0.115953 0
0.112642 0.115557 0
0.114992 0.115114 0
0.117998 0.114565 0
0.121843 0.114046 0.000228885
0.148974 0.120409 0.0123598
0.237308 0.130159 0.0425574
0.313344 0.134585 0.0581521
0.374411 0.134936 0.0631723
0.422202 0.129122 0.0673381
0.455817 0.120531 0.0720989
0.481895 0.114809 0.0774701
0.499077 0.189731 0.0616617
0.521828 0.318288 0.0300298
0.569879 0.358129 0.0208438
0.625879 0.366567 0.0202792
0.681865 0.373877 0.0201572
0.737865 0.379294 0.0195468
0.79501 0.382605 0.0180056
0.853346 0.38381 0.0152895
0.912718 0.381964 0.011368
0.968795 0.377844 0.00665293
0.990326 0.372183 0.00500496
0.995987 0.36669 0.00491341
0.996628 0.362509 0.00529488
0.996414 0.359762 0.00563058
0.996277 0.357885 0.00585946
0.996155 0.356329 0.00602731
0.0827497 0.122866 0
0.0822766 0.123156 0
0.0816968 0.123507 0
0.081529 0.123613 0
0.0820172 0.123415 0
0.0827344 0.123125 0
0.0835431 0.122774 0
0.084535 0.122377 0
0.0862287 0.121752 0
0.088304 0.121126 0
0.0908675 0.120516 6.10361e-05
0.183307 0.131991 0.0180819
0.274678 0.141253 0.0496834
0.355947 0.146593 0.062974
0.420035 0.145968 0.0686198
0.464851 0.138262 0.0735332
0.494591 0.128237 0.0783246
0.516304 0.122683 0.0828717
0.531929 0.2065 0.0647746
0.556909 0.357626 0.0285191
0.606592 0.409033 0.0169375
0.661875 0.418173 0.0157931
0.718059 0.423026 0.0152285
0.77583 0.426734 0.0137484
0.834241 0.428016 0.0112154
0.894026 0.427146 0.00750744
0.953948 0.423362 0.00308232
0.985534 0.418235 0.00117494
0.997436 0.412528 0.000488289
0.999557 0.407813 0.000732433
0.999344 0.405005 0.00108339
0.999207 0.403204 0.00129702
0.999069 0.40116 0.00151064
0.0690623 0.134066 0
0.0687572 0.134554 0
0.0684672 0.135058 0
0.0683604 0.135241 0
0.0686198 0.134829 0
0.0688182 0.134554 0
0.0692607 0.133883 0
0.0698405 0.132982 0
0.0707256 0.131823 0
0.0718853 0.130724 0
0.0733349 0.129427 0
0.124788 0.134768 0.000564584
0.223697 0.147463 0.0266728
0.320348 0.157214 0.0565805
0.407248 0.162539 0.0701762
0.469474 0.159945 0.0770275
0.509773 0.150149 0.0813764
0.533227 0.140047 0.0847028
0.550713 0.136217 0.0874952
0.566583 0.222629 0.0690166
0.593149 0.394553 0.029221
0.64184 0.46215 0.0132753
0.698451 0.473091 0.010605
0.75613 0.475593 0.0091249
0.815137 0.476493 0.00666819
0.874693 0.475044 0.00358587
0.935332 0.471122 0.000488289
0.975738 0.465064 7.62951e-05
0.995377 0.459617 3.0518e-05
1 0.45478 3.0518e-05
1 0.451637 3.0518e-05
1 0.449714 3.0518e-05
1 0.447456 3.0518e-05
0.0605783 0.152102 0
0.060441 0.152605 0
0.0602731 0.153292 0
0.0601511 0.153719 0
0.0602884 0.153353 0
0.0604868 0.152712 0
0.0608072 0.151766 0
0.0611734 0.150652 0
0.0617075 0.149187 0
0.0623331 0.147433 0
0.0630961 0.145357 0
0.0737469 0.145739 0
0.16466 0.155367 0.00411994
0.268864 0.167941 0.0329595
0.375891 0.178744 0.0656138
0.464012 0.183368 0.0812848
0.523568 0.179019 0.087541
0.55671 0.168551 0.0904097
0.574228 0.159762 0.0918593
0.587716 0.158862 0.093431
0.603906 0.240803 0.0771649
0.630304 0.430045 0.0329442
0.678218 0.517662 0.009308
0.735729 0.529397 0.00436408
0.79501 0.528862 0.00225834
0.85388 0.524575 0.00102235
0.913741 0.518975 6.10361e-05
0.960372 0.513024 3.0518e-05
0.991363 0.507912 3.0518e-05
1 0.502831 3.0518e-05
1 0.499168 3.0518e-05
1 0.497337 3.0518e-05
1 0.495048 3.0518e-05
0.0557107 0.175937 0
0.0556344 0.176638 0
0.0555428 0.177569 0
0.0554818 0.178073 0
0.0555428 0.177539 0
0.0556497 0.176654 0
0.0557565 0.175769 0
0.0559243 0.17435 0
0.0561837 0.17258 0
0.0564431 0.170718 0
0.0568093 0.168322 0
0.0571908 0.165805 0
0.104295 0.170871 0
0.205432 0.178439 0.00662242
0.320195 0.192523 0.0419318
0.435203 0.203998 0.0779278
0.523873 0.208667 0.0938735
0.577203 0.203861 0.0996262
0.603967 0.194522 0.101091
0.617319 0.188769 0.101549
0.629618 0.192233 0.103502
0.645808 0.261097 0.0914473
0.668971 0.461997 0.0408637
0.714641 0.568215 0.00708019
0.772519 0.580911 7.62951e-05
0.831205 0.574228 3.0518e-05
0.890959 0.568109 3.0518e-05
0.943984 0.562219 3.0518e-05
0.985306 0.557015 3.0518e-05
0.999435 0.551858 3.0518e-05
1 0.548012 3.0518e-05
1 0.545419 3.0518e-05
1 0.542977 3.0518e-05
0.0534066 0.20415 0
0.0533761 0.204944 0
0.0533303 0.206073 0
0.053315 0.206409 0
0.0533455 0.205982 0
0.0533913 0.205234 0
0.0534371 0.203998 0
0.0535134 0.202548 0
0.0535897 0.200732 0
0.0536507 0.198703 0
0.0537423 0.195956 0
0.0538491 0.19295 0
0.0702678 0.191577 0
0.13695 0.195178 6.10361e-05
0.248661 0.20354 0.0111391
0.371221 0.218875 0.0523384
0.491295 0.231312 0.0897231
0.577417 0.236057 0.106828
0.626719 0.233158 0.1122
0.649744 0.227008 0.11342
0.66183 0.225544 0.114321
0.673579 0.233021 0.117403
0.689281 0.281224 0.112749
0.70634 0.481346 0.0559548
0.749691 0.608469 0.00935378
0.808164 0.623255 0.000396735
0.867796 0.617685 3.0518e-05
0.924331 0.611978 3.0518e-05
0.973724 0.606638 3.0518e-05
0.996246 0.601877 3.0518e-05
1 0.597574 3.0518e-05
1 0.594369 3.0518e-05
1 0.592111 3.0518e-05
0.0516518 0.235187 0
0.0515755 0.236286 0
0.0514992 0.237247 0
0.0514382 0.237858 0
0.0514839 0.237324 0
0.0515755 0.236301 0
0.051667 0.235096 0
0.0517739 0.233845 0
0.0518959 0.231952 0
0.0520485 0.229648 0
0.0522316 0.226871 0
0.0524453 0.223606 0
0.0541543 0.220432 0
0.093019 0.218616 0
0.175799 0.21886 0.000488289
0.292378 0.227344 0.0166323
0.417929 0.244907 0.059678
0.538048 0.257435 0.100725
0.622263 0.263142 0.118944
0.668177 0.262516 0.124315
0.690394 0.260761 0.126436
0.701915 0.263905 0.128725
0.71223 0.27454 0.133074
0.72607 0.302541 0.13666
0.741268 0.495979 0.0757
0.785779 0.63447 0.0181582
0.844236 0.664149 0.00198367
0.901198 0.662287 3.0518e-05
0.956191 0.657328 3.0518e-05
0.988952 0.652293 3.0518e-05
0.999817 0.647623 3.0518e-05
1 0.644526 3.0518e-05
1 0.642344 3.0518e-05
0.0503853 0.267735 0
0.0504005 0.268589 0
0.0504158 0.269795 0
0.0504158 0.270161 0
0.05037 0.269612 0
0.0503243 0.268574 0
0.0502632 0.267857 0
0.0502022 0.266423 0
0.0502022 0.264424 0
0.0502785 0.26215 0
0.0504005 0.25951 0
0.0505379 0.256382 0
0.05066 0.253254 0
0.062211 0.249622 0
0.121782 0.243732 0
0.212802 0.242664 0.000762951
0.332769 0.253178 0.0192721
0.461021 0.270115 0.0686046
0.578103 0.282155 0.110567
0.658366 0.288655 0.129702
0.702647 0.291035 0.136324
0.722972 0.293462 0.139574
0.733333 0.300862 0.143313
0.742672 0.315282 0.149264
0.754559 0.335546 0.157656
0.773022 0.50457 0.0983291
0.819928 0.654551 0.0312352
0.877134 0.703578 0.00523384
0.933684 0.708232 3.0518e-05
0.976135 0.703182 3.0518e-05
0.99762 0.698863 3.0518e-05
1 0.695033 3.0518e-05
1 0.692927 3.0518e-05
0.053193 0.299886 0
0.0533455 0.300832 0
0.0534829 0.301671 0
0.0535744 0.302144 0
0.0535134 0.301793 0
0.0534066 0.301122 0
0.0532082 0.299931 0
0.0529641 0.298512 0
0.0527504 0.296849 0
0.0525521 0.295003 0
0.0522621 0.292256 0
0.0520027 0.28954 0
0.0516823 0.286213 0
0.0513619 0.282887 0
0.0921492 0.275456 0
0.151705 0.269093 0
0.253773 0.269001 0.00143435
0.381109 0.27892 0.0244144
0.501884 0.296651 0.076936
0.612146 0.307729 0.119829
0.688106 0.315343 0.140291
0.728389 0.320592 0.148699
0.746792 0.327794 0.153628
0.755474 0.339239 0.158709
0.763577 0.355627 0.165347
0.77435 0.375937 0.172305
0.79794 0.513481 0.120302
0.847135 0.663417 0.0507973
0.906447 0.738674 0.0113069
0.958343 0.755154 3.0518e-05
0.990951 0.750195 3.0518e-05
0.99971 0.7458 3.0518e-05
0.999969 0.743389 3.0518e-05
0.0627604 0.331289 0
0.0630503 0.331975 0
0.063447 0.332906 0
0.0637522 0.333593 0
0.0636912 0.333425 0
0.0632944 0.332448 0
0.0628519 0.331319 0
0.0623026 0.329946 0
0.0617075 0.328542 0
0.0609445 0.326543 0
0.0601968 0.324346 0
0.059205 0.32137 0
0.0582284 0.318425 0
0.0571908 0.315221 0
0.0723888 0.309529 0
0.121431 0.299474 0
0.191028 0.294606 0
0.304219 0.296468 0.00244144
0.425544 0.309102 0.0287633
0.540825 0.326757 0.0867933
0.642893 0.339147 0.128832
0.7093 0.348608 0.149798
0.745541 0.356725 0.160662
0.760601 0.36733 0.166506
0.768292 0.381216 0.171511
0.775341 0.397726 0.175555
0.786603 0.416846 0.180575
0.814908 0.521035 0.142458
0.867903 0.665675 0.0756695
0.9308 0.770947 0.0205386
0.980468 0.802228 3.0518e-05
0.997253 0.797711 3.0518e-05
0.999664 0.795041 3.0518e-05
0.079408 0.362081 0
0.0799115 0.36289 0
0.080705 0.364172 0
0.0810559 0.364752 0
0.0808423 0.364385 0
0.0802472 0.363455 0
0.0796521 0.362524 0
0.0787823 0.361151 0
0.0777752 0.359548 0
0.0768292 0.358022 0
0.0753948 0.355673 0
0.0738079 0.353017 0
0.0720226 0.349981 0
0.0701152 0.346731 0
0.0709697 0.342885 0
0.102586 0.33283 0
0.153048 0.322698 0
0.231189 0.3205 1.5259e-05
0.346807 0.325948 0.002533
0.46598 0.342962 0.0312963
0.575631 0.364065 0.0936141
0.664073 0.379675 0.134066
0.721889 0.391699 0.156359
0.751949 0.402823 0.1673
0.766094 0.414099 0.173297
0.773648 0.426291 0.176791
0.782864 0.440467 0.181247
0.796902 0.456428 0.187915
0.827039 0.530373 0.164599
0.880598 0.660914 0.105592
0.948333 0.795163 0.0350652
0.987137 0.839139 0.00663767
0.997909 0.844709 0.00111391
