example/web/assets/lut.cube
TITLE "Generated by Resolve"
LUT_3D_SIZE 5
0.00631724 0.00317388 0.00393683
0.209781 0.0511177 0.0398413
0.602167 0.0755474 0.0407263
0.977417 0.0373846 0.02121
0.977417 0.0373846 0.02121
0.0802472 0.0460365 0.0256352
0.152041 0.0480354 0.0425269
0.547524 0.139727 0.0456245
0.961944 0.076997 0.0230259
0.977829 0.0462654 0.0213016
0.110155 0.115999 0
0.117998 0.114565 0
0.481895 0.114809 0.0774701
0.853346 0.38381 0.0152895
0.996155 0.356329 0.00602731
0.053193 0.299886 0
0.0527504 0.296849 0
0.253773 0.269001 0.00143435
0.763577 0.355627 0.165347
0.999969 0.743389 3.0518e-05
0.0874037 0.374823 0
0.0874037 0.374823 0
0.101961 0.369543 0
0.701656 0.489738 0.144442
0.853727 0.584588 0.215534
0 0.0761578 0.179416
0.150683 0.0396735 0.140307
0.576944 0.0543069 0.106569
0.972976 0.034287 0.0527352
0.976654 0.0368353 0.0267796
0.000854505 0.079469 0.120455
0.111315 0.0978103 0.118456
0.547845 0.135409 0.0917372
0.972564 0.0653391 0.0312963
0.977584 0.0409705 0.0212406
0.090425 0.110491 0
0.113115 0.112459 0.000259403
0.48571 0.112749 0.078645
0.874098 0.376059 0.0148775
0.995544 0.348394 0.00694286
0.0522164 0.29395 0
0.0520638 0.290898 0
0.298833 0.268238 0.00840772
0.765911 0.358755 0.166491
1 0.735103 3.0518e-05
0.0874037 0.374823 0
0.0874037 0.374823 0
0.109087 0.366613 0
0.714183 0.495155 0.151064
0.858656 0.58883 0.217823
0 0.169635 0.342031
0 0.110155 0.311452
0.379705 0.0684062 0.296452
0.874037 0.0402686 0.388205
0.928313 0.0249332 0.379248
0 0.250904 0.413977
0 0.208057 0.381399
0.354665 0.110704 0.307622
0.911192 0.0401007 0.38851
0.951507 0.0181582 0.370504
0 0.232776 0.224491
0 0.209705 0.203052
0.400946 0.372869 0.380667
0.876402 0.375021 0.331853
0.986969 0.33872 0.281743
0 0.328634 0.186923
0 0.317845 0.164431
0.198505 0.368765 0.144335
0.78117 0.40763 0.247852
0.998672 0.71487 0.109941
0.033753 0.407324 0.11429
0.0563363 0.400702 0.0927749
0.117739 0.404974 0.0642252
0.715236 0.502281 0.160479
0.859541 0.589654 0.218173
0 0.165347 0.379797
0 0.141054 0.39472
0.175952 0.117327 0.514336
0.50959 0.0810254 0.431891
0.50959 0.0810254 0.431891
0 0.240955 0.431434
0 0.202686 0.425544
0.0274662 0.140032 0.540825
0.509239 0.0809491 0.431922
0.50959 0.0810254 0.431891
0 0.389639 0.441489
0 0.386892 0.444053
0.209552 0.401694 0.614878
0.55259 0.310689 0.60325
0.620172 0.286076 0.551308
0 0.452247 0.419303
0 0.450553 0.418036
0 0.515572 0.491905
0.645701 0.684871 0.751965
0.856092 0.68809 0.717571
0 0.484092 0.430365
0 0.481895 0.427085
0 0.497414 0.437934
0.359121 0.702312 0.596689
0.936019 0.825467 0.653742
0 0.165347 0.379797
0 0.140352 0.395636
0.213504 0.114107 0.507546
0.50959 0.0810254 0.431891
0.50959 0.0810254 0.431891
0 0.234409 0.427497
0 0.190326 0.418387
0.087602 0.131609 0.532174
0.50959 0.0810254 0.431891
0.50959 0.0810254 0.431891
0 0.38735 0.44329
0 0.383902 0.446387
0.199039 0.390692 0.620478
0.569528 0.294789 0.591348
0.609873 0.268757 0.558801
0 0.450446 0.419013
0 0.44889 0.41886
0 0.529671 0.519265
0.64863 0.678065 0.79382
0.803601 0.646113 0.774014
0 0.487221 0.434882
0 0.487221 0.434882
0 0.520653 0.46656
0.225467 0.724483 0.680415
0.955001 0.949477 0.932357
