example/web/assets/MOA_5.cube
#Generated with IWLTBAP LUT Generator
#Website: http://luts.iwltbap.com
TITLE "LUTb-125"
#LUT size
LUT_3D_SIZE 25
#LUT data points
0.015686 0.015686 0.015686
0.023529 0.023529 0.023529
0.031373 0.023529 0.027451
0.043137 0.019608 0.019608
0.058824 0.027451 0.019608
0.074510 0.031373 0.023529
0.101961 0.031373 0.023529
0.109804 0.027451 0.023529
0.149020 0.023529 0.027451
0.196078 0.023529 0.019608
0.239216 0.023529 0.015686
0.290196 0.015686 0.019608
0.341176 0.003922 0.015686
0.400000 0.000000 0.015686
0.470588 0.000000 0.007843
0.529412 0.003922 0.000000
0.592157 0.000000 0.000000
0.643137 0.000000 0.000000
0.705882 0.000000 0.003922
0.752941 0.003922 0.003922
0.815686 0.039216 0.000000
0.858824 0.101961 0.000000
0.901961 0.156863 0.000000
0.949020 0.200000 0.003922
0.980392 0.247059 0.000000
0.015686 0.035294 0.019608
0.023529 0.027451 0.035294
0.031373 0.027451 0.019608
0.050980 0.031373 0.015686
0.066667 0.027451 0.019608
0.066667 0.027451 0.019608
0.105882 0.035294 0.027451
0.125490 0.035294 0.015686
0.160784 0.039216 0.027451
0.207843 0.035294 0.023529
0.247059 0.031373 0.023529
0.309804 0.019608 0.023529
0.360784 0.007843 0.007843
0.415686 0.000000 0.007843
0.478431 0.003922 0.007843
0.549020 0.000000 0.003922
0.603922 0.003922 0.000000
0.654902 0.000000 0.000000
0.709804 0.000000 0.003922
0.764706 0.015686 0.003922
0.823529 0.070588 0.000000
0.862745 0.117647 0.000000
0.905882 0.168627 0.000000
0.949020 0.211765 0.003922
0.984314 0.258824 0.003922
0.023529 0.031373 0.027451
0.027451 0.035294 0.023529
0.031373 0.031373 0.023529
0.047059 0.031373 0.027451
0.070588 0.039216 0.031373
0.082353 0.039216 0.023529
0.101961 0.043137 0.023529
0.137255 0.047059 0.023529
0.172549 0.043137 0.015686
0.219608 0.043137 0.015686
0.270588 0.039216 0.023529
0.317647 0.031373 0.015686
0.376471 0.019608 0.007843
0.435294 0.003922 0.000000
0.494118 0.000000 0.003922
0.552941 0.003922 0.000000
0.615686 0.007843 0.000000
0.670588 0.000000 0.000000
0.733333 0.015686 0.003922
0.784314 0.050980 0.000000
0.835294 0.101961 0.000000
0.878431 0.141176 0.000000
0.921569 0.188235 0.000000
0.960784 0.231373 0.000000
1.000000 0.278431 0.003922
0.015686 0.050980 0.031373
0.027451 0.043137 0.039216
0.027451 0.043137 0.039216
0.023529 0.047059 0.031373
0.047059 0.047059 0.039216
0.082353 0.054902 0.023529
0.113725 0.058824 0.015686
0.149020 0.062745 0.019608
0.192157 0.058824 0.023529
0.247059 0.058824 0.019608
0.290196 0.054902 0.015686
0.352941 0.050980 0.011765
0.396078 0.043137 0.007843
0.462745 0.035294 0.007843
0.517647 0.027451 0.003922
0.572549 0.019608 0.003922
0.631373 0.019608 0.000000
0.690196 0.039216 0.007843
0.752941 0.070588 0.003922
0.788235 0.113725 0.003922
0.827451 0.141176 0.000000
0.882353 0.180392 0.000000
0.929412 0.215686 0.000000
0.976471 0.258824 0.000000
0.996078 0.294118 0.000000
0.023529 0.062745 0.058824
0.019608 0.062745 0.047059
0.027451 0.062745 0.050980
0.043137 0.062745 0.047059
0.043137 0.062745 0.039216
0.066667 0.062745 0.043137
0.101961 0.070588 0.031373
0.149020 0.078431 0.023529
0.207843 0.086275 0.015686
0.254902 0.086275 0.011765
0.313725 0.086275 0.007843
0.368627 0.086275 0.007843
0.435294 0.082353 0.000000
0.490196 0.078431 0.003922
0.545098 0.074510 0.000000
0.603922 0.082353 0.000000
0.658824 0.086275 0.000000
0.717647 0.101961 0.003922
0.760784 0.125490 0.011765
0.811765 0.149020 0.000000
0.854902 0.180392 0.007843
0.894118 0.207843 0.000000
0.933333 0.247059 0.000000
0.968627 0.282353 0.000000
0.996078 0.313725 0.003922
0.019608 0.078431 0.058824
0.011765 0.070588 0.050980
0.019608 0.078431 0.058824
0.043137 0.078431 0.058824
0.039216 0.082353 0.066667
0.054902 0.082353 0.054902
0.074510 0.078431 0.047059
0.121569 0.090196 0.047059
0.172549 0.101961 0.023529
0.247059 0.113725 0.007843
0.321569 0.121569 0.007843
0.376471 0.113725 0.000000
0.431373 0.113725 0.000000
0.494118 0.121569 0.003922
0.552941 0.117647 0.000000
0.611765 0.125490 0.000000
0.654902 0.125490 0.007843
0.713725 0.145098 0.000000
0.756863 0.156863 0.000000
0.803922 0.176471 0.000000
0.847059 0.207843 0.007843
0.890196 0.235294 0.000000
0.929412 0.262745 0.000000
0.972549 0.294118 0.000000
1.000000 0.329412 0.011765
0.003922 0.109804 0.074510
0.015686 0.105882 0.074510
0.003922 0.105882 0.070588
0.015686 0.105882 0.074510
0.035294 0.105882 0.058824
0.058824 0.109804 0.074510
0.070588 0.109804 0.066667
0.098039 0.098039 0.050980
0.160784 0.113725 0.066667
0.231373 0.137255 0.035294
0.305882 0.149020 0.007843
0.396078 0.164706 0.000000
0.462745 0.172549 0.000000
0.529412 0.172549 0.000000
0.584314 0.176471 0.000000
0.635294 0.180392 0.000000
0.686275 0.184314 0.000000
0.737255 0.192157 0.000000
0.788235 0.211765 0.000000
0.827451 0.231373 0.000000
0.866667 0.254902 0.000000
0.901961 0.274510 0.007843
0.941176 0.301961 0.007843
0.980392 0.329412 0.000000
0.996078 0.360784 0.003922
0.003922 0.145098 0.090196
0.000000 0.141176 0.074510
0.000000 0.145098 0.094118
0.003922 0.145098 0.090196
0.019608 0.141176 0.078431
0.047059 0.141176 0.078431
0.086275 0.145098 0.070588
0.117647 0.145098 0.082353
0.149020 0.141176 0.082353
0.200000 0.152941 0.066667
0.286275 0.172549 0.047059
0.376471 0.192157 0.011765
0.474510 0.211765 0.003922
0.556863 0.223529 0.007843
0.623529 0.235294 0.003922
0.670588 0.239216 0.000000
0.721569 0.247059 0.000000
0.764706 0.258824 0.000000
0.800000 0.274510 0.000000
0.835294 0.290196 0.003922
0.874510 0.305882 0.003922
0.917647 0.329412 0.000000
0.956863 0.349020 0.003922
0.988235 0.380392 0.000000
1.000000 0.396078 0.003922
0.007843 0.196078 0.109804
0.000000 0.184314 0.109804
0.007843 0.196078 0.109804
0.011765 0.180392 0.101961
0.007843 0.184314 0.105882
0.047059 0.184314 0.105882
0.082353 0.192157 0.105882
0.117647 0.196078 0.098039
0.164706 0.200000 0.094118
0.196078 0.188235 0.090196
0.247059 0.192157 0.086275
0.341176 0.211765 0.043137
0.435294 0.239216 0.000000
0.549020 0.262745 0.003922
0.627451 0.290196 0.000000
0.686275 0.305882 0.000000
0.741176 0.317647 0.000000
0.784314 0.325490 0.011765
0.823529 0.329412 0.000000
0.862745 0.341176 0.000000
0.905882 0.356863 0.000000
0.933333 0.380392 0.000000
0.968627 0.400000 0.003922
0.988235 0.423529 0.003922
1.000000 0.443137 0.000000
0.003922 0.243137 0.121569
0.007843 0.247059 0.125490
0.003922 0.239216 0.129412
0.000000 0.239216 0.117647
0.000000 0.243137 0.129412
0.015686 0.235294 0.121569
0.066667 0.243137 0.129412
0.121569 0.243137 0.113725
0.176471 0.243137 0.109804
0.219608 0.250980 0.105882
0.254902 0.239216 0.094118
0.301961 0.239216 0.105882
0.407843 0.270588 0.054902
0.501961 0.298039 0.000000
0.596078 0.317647 0.011765
0.686275 0.349020 0.023529
0.749020 0.372549 0.000000
0.796078 0.388235 0.000000
0.843137 0.400000 0.000000
0.882353 0.411765 0.003922
0.909804 0.423529 0.000000
0.949020 0.431373 0.000000
0.984314 0.447059 0.007843
1.000000 0.466667 0.003922
1.000000 0.482353 0.000000
0.003922 0.278431 0.137255
0.000000 0.278431 0.133333
0.003922 0.278431 0.133333
0.000000 0.286275 0.149020
0.000000 0.278431 0.133333
0.003922 0.274510 0.145098
0.047059 0.266667 0.129412
0.098039 0.278431 0.137255
0.156863 0.282353 0.137255
0.200000 0.278431 0.129412
0.258824 0.286275 0.113725
0.294118 0.278431 0.101961
0.356863 0.274510 0.105882
0.435294 0.301961 0.062745
0.533333 0.329412 0.000000
0.623529 0.360784 0.003922
0.709804 0.388235 0.000000
0.776471 0.415686 0.000000
0.839216 0.435294 0.000000
0.874510 0.454902 0.000000
0.917647 0.458824 0.003922
0.945098 0.474510 0.000000
0.980392 0.490196 0.000000
0.996078 0.501961 0.000000
0.996078 0.513725 0.000000
0.000000 0.360784 0.160784
0.000000 0.356863 0.172549
0.000000 0.349020 0.160784
0.007843 0.341176 0.168627
0.003922 0.345098 0.176471
0.000000 0.341176 0.160784
0.035294 0.345098 0.168627
0.105882 0.337255 0.164706
0.156863 0.345098 0.149020
0.219608 0.345098 0.149020
0.274510 0.352941 0.145098
0.325490 0.360784 0.137255
0.356863 0.345098 0.129412
0.419608 0.337255 0.129412
0.498039 0.352941 0.086275
0.596078 0.380392 0.015686
0.682353 0.419608 0.007843
0.749020 0.447059 0.000000
0.811765 0.474510 0.007843
0.866667 0.494118 0.007843
0.917647 0.513725 0.000000
0.952941 0.525490 0.000000
0.984314 0.521569 0.000000
0.992157 0.545098 0.000000
0.992157 0.556863 0.000000
0.007843 0.419608 0.192157
0.007843 0.419608 0.200000
0.000000 0.415686 0.184314
0.003922 0.407843 0.192157
0.007843 0.411765 0.196078
0.003922 0.407843 0.200000
0.031373 0.400000 0.188235
0.101961 0.403922 0.200000
0.176471 0.407843 0.196078
0.227451 0.403922 0.172549
0.286275 0.411765 0.164706
0.345098 0.419608 0.160784
0.396078 0.415686 0.149020
0.439216 0.411765 0.145098
0.482353 0.388235 0.137255
0.560784 0.411765 0.133333
0.650980 0.447059 0.050980
0.725490 0.478431 0.000000
0.792157 0.501961 0.000000
0.858824 0.529412 0.003922
0.913725 0.552941 0.000000
0.960784 0.564706 0.007843
0.992157 0.576471 0.003922
1.000000 0.596078 0.019608
0.996078 0.603922 0.000000
0.000000 0.494118 0.235294
0.000000 0.498039 0.227451
0.003922 0.474510 0.223529
0.000000 0.486275 0.219608
0.000000 0.478431 0.227451
0.000000 0.478431 0.227451
0.070588 0.470588 0.223529
0.141176 0.470588 0.227451
0.188235 0.470588 0.219608
0.243137 0.474510 0.207843
0.294118 0.470588 0.200000
0.356863 0.474510 0.200000
0.407843 0.478431 0.188235
0.458824 0.486275 0.172549
0.505882 0.470588 0.160784
0.541176 0.447059 0.172549
0.615686 0.462745 0.152941
0.694118 0.505882 0.090196
0.768627 0.533333 0.007843
0.839216 0.560784 0.000000
0.898039 0.576471 0.003922
0.956863 0.611765 0.000000
0.992157 0.623529 0.003922
1.000000 0.635294 0.007843
0.996078 0.647059 0.000000
0.007843 0.552941 0.274510
0.000000 0.556863 0.266667
0.000000 0.549020 0.258824
0.000000 0.545098 0.258824
0.000000 0.537255 0.262745
0.054902 0.537255 0.254902
0.125490 0.541176 0.258824
0.176471 0.537255 0.250980
0.227451 0.529412 0.254902
0.266667 0.529412 0.258824
0.321569 0.529412 0.247059
0.372549 0.537255 0.247059
0.427451 0.541176 0.227451
0.478431 0.533333 0.223529
0.537255 0.545098 0.215686
0.580392 0.541176 0.200000
0.607843 0.517647 0.203922
0.670588 0.521569 0.203922
0.756863 0.556863 0.145098
0.823529 0.580392 0.050980
0.878431 0.607843 0.000000
0.925490 0.631373 0.000000
0.976471 0.643137 0.003922
1.000000 0.662745 0.000000
1.000000 0.678431 0.000000
0.000000 0.580392 0.290196
0.003922 0.576471 0.290196
0.000000 0.572549 0.286275
0.000000 0.572549 0.278431
0.007843 0.568627 0.286275
0.078431 0.572549 0.286275
0.149020 0.568627 0.286275
0.200000 0.576471 0.278431
0.239216 0.560784 0.298039
0.278431 0.564706 0.278431
0.329412 0.576471 0.266667
0.372549 0.580392 0.274510
0.427451 0.580392 0.266667
0.482353 0.580392 0.254902
0.529412 0.580392 0.235294
0.592157 0.584314 0.243137
0.623529 0.584314 0.235294
0.658824 0.564706 0.219608
0.705882 0.560784 0.243137
0.780392 0.596078 0.180392
0.835294 0.627451 0.117647
0.898039 0.643137 0.007843
0.949020 0.662745 0.007843
0.996078 0.682353 0.003922
1.000000 0.705882 0.000000
0.125490 0.650980 0.349020
0.117647 0.654902 0.349020
0.129412 0.654902 0.356863
0.145098 0.647059 0.337255
0.176471 0.639216 0.341176
0.207843 0.643137 0.333333
0.235294 0.639216 0.321569
0.266667 0.635294 0.329412
0.294118 0.635294 0.329412
0.341176 0.631373 0.321569
0.376471 0.627451 0.317647
0.423529 0.631373 0.317647
0.462745 0.639216 0.317647
0.501961 0.631373 0.321569
0.552941 0.643137 0.290196
0.600000 0.639216 0.298039
0.650980 0.647059 0.282353
0.678431 0.635294 0.274510
0.705882 0.623529 0.266667
0.752941 0.619608 0.278431
0.815686 0.643137 0.254902
0.874510 0.670588 0.200000
0.921569 0.694118 0.133333
0.976471 0.717647 0.003922
1.000000 0.733333 0.000000
0.247059 0.709804 0.411765
0.243137 0.709804 0.396078
0.258824 0.701961 0.419608
0.254902 0.701961 0.400000
0.266667 0.701961 0.400000
0.286275 0.694118 0.392157
0.305882 0.701961 0.388235
0.333333 0.690196 0.388235
0.364706 0.694118 0.392157
0.384314 0.690196 0.384314
0.419608 0.686275 0.384314
0.458824 0.690196 0.376471
0.498039 0.690196 0.372549
0.525490 0.690196 0.368627
0.572549 0.698039 0.360784
0.611765 0.690196 0.349020
0.658824 0.694118 0.345098
0.698039 0.701961 0.337255
0.733333 0.698039 0.333333
0.760784 0.678431 0.321569
0.807843 0.674510 0.325490
0.862745 0.694118 0.325490
0.917647 0.721569 0.278431
0.956863 0.741176 0.243137
1.000000 0.764706 0.192157
0.345098 0.752941 0.458824
0.349020 0.756863 0.454902
0.337255 0.752941 0.470588
0.352941 0.752941 0.462745
0.352941 0.749020 0.443137
0.364706 0.749020 0.454902
0.388235 0.749020 0.447059
0.403922 0.741176 0.447059
0.427451 0.741176 0.447059
0.443137 0.741176 0.447059
0.466667 0.745098 0.447059
0.490196 0.733333 0.431373
0.529412 0.737255 0.431373
0.560784 0.745098 0.439216
0.600000 0.749020 0.415686
0.631373 0.745098 0.423529
0.674510 0.741176 0.423529
0.709804 0.749020 0.407843
0.752941 0.749020 0.388235
0.780392 0.752941 0.400000
0.796078 0.733333 0.388235
0.839216 0.729412 0.403922
0.882353 0.749020 0.400000
0.945098 0.768627 0.380392
0.976471 0.788235 0.364706
0.427451 0.807843 0.529412
0.419608 0.800000 0.521569
0.435294 0.792157 0.517647
0.435294 0.792157 0.521569
0.435294 0.792157 0.521569
0.454902 0.788235 0.521569
0.462745 0.788235 0.513725
0.466667 0.792157 0.509804
0.478431 0.792157 0.505882
0.509804 0.788235 0.513725
0.525490 0.788235 0.509804
0.541176 0.784314 0.498039
0.564706 0.784314 0.505882
0.600000 0.776471 0.505882
0.639216 0.788235 0.494118
0.666667 0.788235 0.482353
0.701961 0.792157 0.486275
0.733333 0.792157 0.474510
0.764706 0.796078 0.462745
0.792157 0.800000 0.470588
0.831373 0.792157 0.450980
0.847059 0.784314 0.450980
0.878431 0.776471 0.474510
0.913725 0.792157 0.478431
0.952941 0.811765 0.482353
0.454902 0.819608 0.545098
0.466667 0.815686 0.556863
0.470588 0.811765 0.541176
0.466667 0.823529 0.552941
0.466667 0.819608 0.537255
0.486275 0.827451 0.560784
0.505882 0.815686 0.549020
0.505882 0.815686 0.549020
0.521569 0.819608 0.537255
0.545098 0.819608 0.537255
0.560784 0.815686 0.549020
0.576471 0.815686 0.552941
0.600000 0.815686 0.549020
0.627451 0.819608 0.552941
0.643137 0.819608 0.549020
0.674510 0.819608 0.545098
0.701961 0.827451 0.533333
0.737255 0.831373 0.533333
0.768627 0.831373 0.545098
0.788235 0.831373 0.533333
0.831373 0.835294 0.529412
0.847059 0.839216 0.513725
0.882353 0.819608 0.517647
0.909804 0.815686 0.525490
0.925490 0.831373 0.549020
0.572549 0.858824 0.639216
0.560784 0.866667 0.631373
0.556863 0.862745 0.619608
0.552941 0.866667 0.627451
0.572549 0.866667 0.635294
0.556863 0.854902 0.611765
0.576471 0.854902 0.627451
0.588235 0.862745 0.615686
0.600000 0.854902 0.619608
0.611765 0.862745 0.623529
0.619608 0.858824 0.623529
0.631373 0.858824 0.627451
0.650980 0.862745 0.627451
0.670588 0.858824 0.623529
0.694118 0.858824 0.611765
0.713725 0.862745 0.631373
0.745098 0.862745 0.611765
0.764706 0.862745 0.607843
0.788235 0.870588 0.607843
0.819608 0.866667 0.615686
0.847059 0.874510 0.603922
0.866667 0.870588 0.607843
0.894118 0.878431 0.592157
0.913725 0.854902 0.584314
0.937255 0.862745 0.603922
0.627451 0.901961 0.690196
0.635294 0.898039 0.690196
0.631373 0.894118 0.686275
0.639216 0.901961 0.690196
0.627451 0.905882 0.678431
0.643137 0.894118 0.690196
0.650980 0.898039 0.682353
0.654902 0.890196 0.678431
0.662745 0.898039 0.694118
0.674510 0.898039 0.698039
0.686275 0.890196 0.698039
0.698039 0.894118 0.694118
0.709804 0.894118 0.690196
0.733333 0.890196 0.686275
0.729412 0.898039 0.690196
0.764706 0.898039 0.698039
0.784314 0.898039 0.686275
0.792157 0.898039 0.682353
0.819608 0.901961 0.682353
0.839216 0.905882 0.690196
0.854902 0.905882 0.686275
0.874510 0.905882 0.682353
0.905882 0.909804 0.674510
0.925490 0.917647 0.686275
0.952941 0.905882 0.678431
0.705882 0.937255 0.764706
0.698039 0.921569 0.752941
0.705882 0.929412 0.752941
0.701961 0.925490 0.749020
0.701961 0.933333 0.760784
0.709804 0.929412 0.752941
0.705882 0.925490 0.741176
0.721569 0.929412 0.756863
0.729412 0.917647 0.752941
0.741176 0.925490 0.760784
0.737255 0.925490 0.760784
0.741176 0.929412 0.764706
0.764706 0.933333 0.756863
0.772549 0.921569 0.760784
0.792157 0.921569 0.752941
0.800000 0.925490 0.764706
0.819608 0.929412 0.768627
0.823529 0.933333 0.772549
0.850980 0.933333 0.764706
0.870588 0.945098 0.768627
0.886275 0.937255 0.764706
0.901961 0.949020 0.768627
0.917647 0.941176 0.768627
0.945098 0.941176 0.760784
0.960784 0.945098 0.760784
0.776471 0.960784 0.819608
0.772549 0.956863 0.815686
0.764706 0.964706 0.803922
0.756863 0.960784 0.811765
0.760784 0.956863 0.803922
0.772549 0.956863 0.815686
0.772549 0.952941 0.811765
0.780392 0.960784 0.811765
0.788235 0.952941 0.807843
0.784314 0.956863 0.811765
0.792157 0.964706 0.819608
0.807843 0.964706 0.823529
0.815686 0.964706 0.819608
0.823529 0.952941 0.831373
0.827451 0.960784 0.827451
0.839216 0.960784 0.827451
0.862745 0.968627 0.839216
0.874510 0.968627 0.843137
0.882353 0.964706 0.835294
0.901961 0.968627 0.843137
0.925490 0.968627 0.835294
0.933333 0.972549 0.835294
0.949020 0.972549 0.839216
0.964706 0.980392 0.850980
0.984314 0.984314 0.850980
0.023529 0.023529 0.023529
0.023529 0.023529 0.031373
0.027451 0.019608 0.039216
0.050980 0.015686 0.027451
0.054902 0.019608 0.031373
0.078431 0.031373 0.031373
0.090196 0.027451 0.031373
0.117647 0.035294 0.031373
0.149020 0.031373 0.031373
0.192157 0.035294 0.039216
0.243137 0.027451 0.047059
0.290196 0.019608 0.039216
0.352941 0.003922 0.027451
0.415686 0.000000 0.019608
0.478431 0.000000 0.011765
0.525490 0.000000 0.000000
0.603922 0.000000 0.000000
0.654902 0.003922 0.000000
0.709804 0.000000 0.003922
0.768627 0.003922 0.000000
0.819608 0.043137 0.011765
0.870588 0.105882 0.000000
0.898039 0.156863 0.007843
0.952941 0.203922 0.000000
1.000000 0.239216 0.000000
0.011765 0.035294 0.027451
0.027451 0.027451 0.035294
0.035294 0.027451 0.047059
0.035294 0.035294 0.035294
0.054902 0.031373 0.031373
0.078431 0.039216 0.043137
0.086275 0.043137 0.027451
0.125490 0.039216 0.047059
0.152941 0.035294 0.035294
0.203922 0.043137 0.035294
0.250980 0.031373 0.035294
0.301961 0.019608 0.027451
0.360784 0.015686 0.019608
0.431373 0.003922 0.027451
0.490196 0.000000 0.015686
0.549020 0.000000 0.003922
0.603922 0.003922 0.000000
0.666667 0.003922 0.000000
0.721569 0.000000 0.000000
0.780392 0.015686 0.007843
0.827451 0.066667 0.000000
0.870588 0.125490 0.000000
0.909804 0.168627 0.011765
0.964706 0.215686 0.003922
0.984314 0.254902 0.000000
0.031373 0.031373 0.039216
0.023529 0.039216 0.035294
0.027451 0.043137 0.039216
0.039216 0.039216 0.039216
0.062745 0.047059 0.035294
0.098039 0.043137 0.039216
0.113725 0.043137 0.035294
0.141176 0.047059 0.039216
0.168627 0.047059 0.027451
0.215686 0.047059 0.023529
0.274510 0.043137 0.027451
0.321569 0.035294 0.019608
0.376471 0.023529 0.023529
0.431373 0.015686 0.031373
0.501961 0.000000 0.011765
0.556863 0.003922 0.000000
0.619608 0.003922 0.007843
0.670588 0.000000 0.003922
0.733333 0.015686 0.000000
0.788235 0.054902 0.000000
0.839216 0.105882 0.000000
0.882353 0.149020 0.000000
0.925490 0.188235 0.003922
0.960784 0.231373 0.000000
0.996078 0.266667 0.003922
0.015686 0.050980 0.039216
0.031373 0.047059 0.050980
0.031373 0.050980 0.062745
0.031373 0.047059 0.043137
0.054902 0.054902 0.047059
0.086275 0.058824 0.035294
0.117647 0.058824 0.031373
0.149020 0.058824 0.027451
0.192157 0.062745 0.027451
0.231373 0.058824 0.023529
0.290196 0.058824 0.035294
0.341176 0.047059 0.023529
0.396078 0.050980 0.015686
0.458824 0.039216 0.015686
0.517647 0.027451 0.003922
0.576471 0.027451 0.000000
0.639216 0.027451 0.000000
0.694118 0.047059 0.003922
0.745098 0.070588 0.000000
0.792157 0.105882 0.000000
0.847059 0.141176 0.003922
0.890196 0.176471 0.000000
0.929412 0.215686 0.000000
0.976471 0.250980 0.000000
0.996078 0.294118 0.000000
0.023529 0.062745 0.058824
0.011765 0.070588 0.058824
0.027451 0.062745 0.058824
0.031373 0.066667 0.062745
0.058824 0.066667 0.054902
0.062745 0.066667 0.047059
0.105882 0.070588 0.043137
0.168627 0.082353 0.039216
0.215686 0.082353 0.035294
0.262745 0.094118 0.031373
0.313725 0.082353 0.019608
0.380392 0.074510 0.023529
0.435294 0.078431 0.003922
0.486275 0.074510 0.000000
0.549020 0.078431 0.000000
0.600000 0.082353 0.000000
0.658824 0.086275 0.003922
0.713725 0.098039 0.000000
0.760784 0.125490 0.000000
0.811765 0.149020 0.000000
0.839216 0.172549 0.000000
0.886275 0.207843 0.011765
0.929412 0.239216 0.007843
0.964706 0.278431 0.000000
0.992157 0.309804 0.000000
0.011765 0.074510 0.070588
0.007843 0.082353 0.074510
0.023529 0.090196 0.066667
0.031373 0.078431 0.062745
0.043137 0.082353 0.050980
0.050980 0.090196 0.058824
0.078431 0.082353 0.050980
0.125490 0.090196 0.062745
0.192157 0.109804 0.043137
0.250980 0.117647 0.019608
0.321569 0.117647 0.023529
0.380392 0.117647 0.011765
0.443137 0.117647 0.000000
0.498039 0.121569 0.000000
0.552941 0.117647 0.000000
0.615686 0.129412 0.000000
0.658824 0.133333 0.003922
0.709804 0.145098 0.000000
0.768627 0.164706 0.000000
0.807843 0.180392 0.007843
0.858824 0.203922 0.000000
0.894118 0.239216 0.000000
0.937255 0.270588 0.000000
0.972549 0.294118 0.000000
0.992157 0.333333 0.007843
0.000000 0.109804 0.070588
0.011765 0.113725 0.078431
0.011765 0.113725 0.070588
0.031373 0.113725 0.086275
0.027451 0.109804 0.082353
0.070588 0.113725 0.082353
0.090196 0.113725 0.074510
0.117647 0.109804 0.062745
0.168627 0.113725 0.062745
0.243137 0.141176 0.043137
0.321569 0.156863 0.015686
0.407843 0.164706 0.003922
0.474510 0.172549 0.000000
0.529412 0.164706 0.000000
0.592157 0.172549 0.007843
0.639216 0.184314 0.000000
0.690196 0.188235 0.000000
0.737255 0.200000 0.003922
0.772549 0.215686 0.000000
0.823529 0.227451 0.003922
0.862745 0.254902 0.000000
0.905882 0.278431 0.003922
0.941176 0.301961 0.000000
0.980392 0.329412 0.000000
0.996078 0.368627 0.000000
0.000000 0.149020 0.098039
0.003922 0.152941 0.094118
0.000000 0.149020 0.113725
0.000000 0.149020 0.098039
0.035294 0.141176 0.105882
0.047059 0.152941 0.094118
0.082353 0.156863 0.082353
0.109804 0.152941 0.098039
0.149020 0.152941 0.098039
0.207843 0.156863 0.082353
0.298039 0.176471 0.054902
0.384314 0.196078 0.015686
0.486275 0.215686 0.000000
0.568627 0.231373 0.007843
0.619608 0.235294 0.000000
0.670588 0.239216 0.000000
0.721569 0.247059 0.000000
0.764706 0.258824 0.000000
0.803922 0.270588 0.000000
0.843137 0.286275 0.003922
0.874510 0.305882 0.003922
0.921569 0.333333 0.003922
0.956863 0.349020 0.000000
0.984314 0.376471 0.000000
0.992157 0.403922 0.000000
0.000000 0.200000 0.133333
0.000000 0.200000 0.113725
0.007843 0.192157 0.113725
0.003922 0.196078 0.109804
0.000000 0.196078 0.129412
0.043137 0.188235 0.117647
0.074510 0.200000 0.117647
0.117647 0.203922 0.113725
0.152941 0.203922 0.098039
0.203922 0.196078 0.098039
0.254902 0.200000 0.086275
0.352941 0.223529 0.054902
0.450980 0.250980 0.003922
0.545098 0.270588 0.000000
0.635294 0.298039 0.000000
0.694118 0.313725 0.000000
0.745098 0.313725 0.000000
0.784314 0.321569 0.000000
0.827451 0.337255 0.000000
0.866667 0.345098 0.003922
0.905882 0.352941 0.003922
0.929412 0.376471 0.000000
0.960784 0.400000 0.000000
0.992157 0.419608 0.000000
0.996078 0.443137 0.000000
0.003922 0.258824 0.141176
0.000000 0.258824 0.141176
0.000000 0.254902 0.137255
0.000000 0.250980 0.133333
0.000000 0.250980 0.133333
0.015686 0.247059 0.137255
0.066667 0.247059 0.137255
0.121569 0.250980 0.129412
0.176471 0.254902 0.117647
0.219608 0.258824 0.113725
0.258824 0.250980 0.101961
0.309804 0.247059 0.113725
0.415686 0.270588 0.066667
0.505882 0.301961 0.003922
0.603922 0.325490 0.003922
0.694118 0.352941 0.003922
0.760784 0.376471 0.000000
0.803922 0.392157 0.003922
0.839216 0.396078 0.003922
0.878431 0.407843 0.000000
0.913725 0.415686 0.003922
0.945098 0.427451 0.000000
0.980392 0.443137 0.000000
0.996078 0.462745 0.000000
1.000000 0.478431 0.003922
0.003922 0.282353 0.149020
0.007843 0.286275 0.152941
0.000000 0.286275 0.149020
0.000000 0.286275 0.149020
0.000000 0.290196 0.160784
0.007843 0.278431 0.149020
0.047059 0.282353 0.141176
0.105882 0.294118 0.141176
0.156863 0.290196 0.145098
