example/web/assets/MOA_5.cube
#Generated with IWLTBAP LUT Generator
#Website: http://luts.iwltbap.com
TITLE "LUTb-125"
#LUT size
LUT_3D_SIZE 9
#LUT data points
0.015686 0.015686 0.015686
0.043137 0.019608 0.019608
0.101961 0.031373 0.023529
0.196078 0.023529 0.019608
0.341176 0.003922 0.015686
0.529412 0.003922 0.000000
0.705882 0.000000 0.003922
0.858824 0.101961 0.000000
0.980392 0.247059 0.000000
0.015686 0.050980 0.031373
0.023529 0.047059 0.031373
0.113725 0.058824 0.015686
0.247059 0.058824 0.019608
0.396078 0.043137 0.007843
0.572549 0.019608 0.003922
0.752941 0.070588 0.003922
0.882353 0.180392 0.000000
0.996078 0.294118 0.000000
0.003922 0.109804 0.074510
0.015686 0.105882 0.074510
0.070588 0.109804 0.066667
0.231373 0.137255 0.035294
0.462745 0.172549 0.000000
0.635294 0.180392 0.000000
0.788235 0.211765 0.000000
0.901961 0.274510 0.007843
0.996078 0.360784 0.003922
0.003922 0.243137 0.121569
0.000000 0.239216 0.117647
0.066667 0.243137 0.129412
0.219608 0.250980 0.105882
0.407843 0.270588 0.054902
0.686275 0.349020 0.023529
0.843137 0.400000 0.000000
0.949020 0.431373 0.000000
1.000000 0.482353 0.000000
0.007843 0.419608 0.192157
0.003922 0.407843 0.192157
0.031373 0.400000 0.188235
0.227451 0.403922 0.172549
0.396078 0.415686 0.149020
0.560784 0.411765 0.133333
0.792157 0.501961 0.000000
0.960784 0.564706 0.007843
0.996078 0.603922 0.000000
0.000000 0.580392 0.290196
0.000000 0.572549 0.278431
0.149020 0.568627 0.286275
0.278431 0.564706 0.278431
0.427451 0.580392 0.266667
0.592157 0.584314 0.243137
0.705882 0.560784 0.243137
0.898039 0.643137 0.007843
1.000000 0.705882 0.000000
0.345098 0.752941 0.458824
0.352941 0.752941 0.462745
0.388235 0.749020 0.447059
0.443137 0.741176 0.447059
0.529412 0.737255 0.431373
0.631373 0.745098 0.423529
0.752941 0.749020 0.388235
0.839216 0.729412 0.403922
0.976471 0.788235 0.364706
0.572549 0.858824 0.639216
0.552941 0.866667 0.627451
0.576471 0.854902 0.627451
0.611765 0.862745 0.623529
0.650980 0.862745 0.627451
0.713725 0.862745 0.631373
0.788235 0.870588 0.607843
0.866667 0.870588 0.607843
0.937255 0.862745 0.603922
0.776471 0.960784 0.819608
0.756863 0.960784 0.811765
0.772549 0.952941 0.811765
0.784314 0.956863 0.811765
0.815686 0.964706 0.819608
0.839216 0.960784 0.827451
0.882353 0.964706 0.835294
0.933333 0.972549 0.835294
0.984314 0.984314 0.850980
0.015686 0.027451 0.047059
0.023529 0.023529 0.062745
0.090196 0.027451 0.066667
0.192157 0.039216 0.066667
0.345098 0.019608 0.066667
0.525490 0.003922 0.047059
0.721569 0.000000 0.007843
0.874510 0.101961 0.000000
0.988235 0.247059 0.000000
0.019608 0.058824 0.066667
0.039216 0.058824 0.082353
0.109804 0.062745 0.078431
0.227451 0.062745 0.066667
0.400000 0.054902 0.047059
0.584314 0.031373 0.027451
0.737255 0.066667 0.007843
0.878431 0.160784 0.007843
1.000000 0.286275 0.000000
0.003922 0.125490 0.105882
0.023529 0.129412 0.109804
0.090196 0.125490 0.113725
0.270588 0.149020 0.066667
0.474510 0.160784 0.015686
0.631373 0.176471 0.000000
0.780392 0.211765 0.000000
0.905882 0.278431 0.003922
0.996078 0.368627 0.000000
0.007843 0.274510 0.168627
0.000000 0.274510 0.172549
0.090196 0.270588 0.168627
0.239216 0.274510 0.152941
0.443137 0.294118 0.109804
0.694118 0.364706 0.000000
0.839216 0.388235 0.000000
0.933333 0.411765 0.000000
1.000000 0.474510 0.000000
0.003922 0.450980 0.239216
0.000000 0.443137 0.239216
0.086275 0.431373 0.227451
0.258824 0.431373 0.223529
0.419608 0.443137 0.200000
0.584314 0.431373 0.168627
0.827451 0.521569 0.000000
0.968627 0.576471 0.007843
1.000000 0.596078 0.003922
0.003922 0.603922 0.321569
0.082353 0.603922 0.325490
0.203922 0.592157 0.329412
0.309804 0.580392 0.317647
0.435294 0.596078 0.298039
0.588235 0.596078 0.270588
0.717647 0.580392 0.262745
0.913725 0.658824 0.105882
0.992157 0.709804 0.003922
0.380392 0.768627 0.513725
0.384314 0.756863 0.482353
0.415686 0.756863 0.486275
0.474510 0.752941 0.478431
0.549020 0.749020 0.478431
0.643137 0.749020 0.470588
0.756863 0.752941 0.431373
0.835294 0.729412 0.419608
0.984314 0.796078 0.380392
0.568627 0.870588 0.650980
0.572549 0.866667 0.643137
0.588235 0.870588 0.623529
0.611765 0.858824 0.643137
0.662745 0.862745 0.639216
0.717647 0.874510 0.631373
0.792157 0.870588 0.623529
0.870588 0.874510 0.611765
0.933333 0.858824 0.631373
0.776471 0.960784 0.819608
0.776471 0.964706 0.811765
0.784314 0.956863 0.819608
0.800000 0.960784 0.827451
0.823529 0.960784 0.835294
0.850980 0.968627 0.835294
0.882353 0.964706 0.835294
0.933333 0.972549 0.835294
0.980392 0.980392 0.847059
0.000000 0.050980 0.109804
0.000000 0.050980 0.125490
0.015686 0.035294 0.149020
0.192157 0.011765 0.164706
0.364706 0.000000 0.137255
0.521569 0.000000 0.121569
0.686275 0.000000 0.129412
0.847059 0.070588 0.090196
0.992157 0.219608 0.023529
0.003922 0.074510 0.129412
0.007843 0.074510 0.141176
0.039216 0.070588 0.160784
0.227451 0.050980 0.172549
0.392157 0.000000 0.149020
0.549020 0.047059 0.145098
0.717647 0.050980 0.125490
0.862745 0.137255 0.098039
1.000000 0.258824 0.007843
0.007843 0.125490 0.156863
0.000000 0.133333 0.164706
0.098039 0.152941 0.196078
0.262745 0.164706 0.188235
0.439216 0.160784 0.160784
0.607843 0.164706 0.141176
0.752941 0.196078 0.109804
0.898039 0.258824 0.050980
1.000000 0.345098 0.000000
0.000000 0.313725 0.254902
0.000000 0.313725 0.254902
0.129412 0.309804 0.266667
0.266667 0.309804 0.247059
0.509804 0.329412 0.188235
0.705882 0.356863 0.098039
0.823529 0.368627 0.043137
0.925490 0.396078 0.003922
1.000000 0.450980 0.000000
0.000000 0.494118 0.325490
0.007843 0.482353 0.321569
0.160784 0.474510 0.321569
0.286275 0.462745 0.309804
0.443137 0.466667 0.294118
0.623529 0.470588 0.254902
0.839216 0.537255 0.090196
0.964706 0.568627 0.011765
0.996078 0.592157 0.000000
0.164706 0.635294 0.423529
0.203922 0.631373 0.407843
0.258824 0.623529 0.407843
0.356863 0.611765 0.392157
0.474510 0.611765 0.384314
0.600000 0.623529 0.349020
0.725490 0.603922 0.341176
0.917647 0.670588 0.219608
0.996078 0.713725 0.000000
0.419608 0.772549 0.560784
0.443137 0.776471 0.552941
0.458824 0.776471 0.549020
0.509804 0.764706 0.537255
0.560784 0.760784 0.529412
0.654902 0.756863 0.509804
0.752941 0.756863 0.490196
0.847059 0.733333 0.474510
0.992157 0.792157 0.427451
0.607843 0.870588 0.690196
0.588235 0.878431 0.678431
0.607843 0.866667 0.678431
0.635294 0.870588 0.670588
0.674510 0.866667 0.678431
0.721569 0.870588 0.670588
0.788235 0.878431 0.666667
0.878431 0.878431 0.635294
0.945098 0.866667 0.658824
0.780392 0.964706 0.831373
0.776471 0.960784 0.835294
0.788235 0.956863 0.839216
0.807843 0.960784 0.839216
0.819608 0.960784 0.843137
0.843137 0.956863 0.831373
0.886275 0.964706 0.850980
0.925490 0.976471 0.858824
0.984314 0.980392 0.858824
0.003922 0.078431 0.207843
0.000000 0.074510 0.219608
0.000000 0.074510 0.270588
0.000000 0.054902 0.286275
0.368627 0.003922 0.329412
0.556863 0.003922 0.282353
0.721569 0.003922 0.227451
0.843137 0.000000 0.203922
0.949020 0.176471 0.223529
0.011765 0.113725 0.250980
0.000000 0.109804 0.235294
0.000000 0.113725 0.286275
0.019608 0.082353 0.321569
0.407843 0.007843 0.337255
0.592157 0.000000 0.286275
0.733333 0.000000 0.231373
0.847059 0.003922 0.239216
0.976471 0.235294 0.219608
0.000000 0.145098 0.247059
0.000000 0.160784 0.239216
0.003922 0.188235 0.290196
0.152941 0.172549 0.337255
0.439216 0.137255 0.341176
0.592157 0.070588 0.286275
0.725490 0.152941 0.266667
0.854902 0.235294 0.250980
0.976471 0.309804 0.211765
0.000000 0.294118 0.317647
0.003922 0.286275 0.325490
0.101961 0.325490 0.345098
0.301961 0.352941 0.384314
0.505882 0.352941 0.364706
0.650980 0.349020 0.325490
0.780392 0.352941 0.286275
0.898039 0.380392 0.250980
0.996078 0.443137 0.203922
0.003922 0.513725 0.443137
0.039216 0.517647 0.427451
0.231373 0.509804 0.439216
0.352941 0.513725 0.443137
0.470588 0.509804 0.415686
0.678431 0.521569 0.380392
0.847059 0.552941 0.298039
0.952941 0.549020 0.239216
1.000000 0.572549 0.180392
0.239216 0.662745 0.509804
0.286275 0.654902 0.509804
0.360784 0.662745 0.521569
0.423529 0.647059 0.517647
0.513725 0.631373 0.490196
0.627451 0.639216 0.470588
0.760784 0.635294 0.443137
0.933333 0.690196 0.356863
1.000000 0.717647 0.192157
0.478431 0.800000 0.643137
0.486275 0.792157 0.635294
0.509804 0.788235 0.615686
0.549020 0.780392 0.607843
0.588235 0.772549 0.600000
0.666667 0.776471 0.588235
0.760784 0.772549 0.564706
0.850980 0.749020 0.549020
0.996078 0.803922 0.494118
0.623529 0.890196 0.737255
0.611765 0.890196 0.733333
0.631373 0.886275 0.721569
0.650980 0.878431 0.713725
0.686275 0.874510 0.709804
0.733333 0.870588 0.713725
0.792157 0.874510 0.705882
0.886275 0.886275 0.690196
0.941176 0.866667 0.698039
0.792157 0.960784 0.850980
0.788235 0.960784 0.854902
0.807843 0.956863 0.854902
0.811765 0.964706 0.843137
0.831373 0.960784 0.847059
0.858824 0.964706 0.839216
0.898039 0.960784 0.858824
0.933333 0.976471 0.850980
0.988235 0.992157 0.870588
0.000000 0.121569 0.341176
0.000000 0.125490 0.356863
0.000000 0.133333 0.400000
0.000000 0.141176 0.458824
0.000000 0.070588 0.482353
0.596078 0.000000 0.529412
0.760784 0.000000 0.482353
0.882353 0.000000 0.431373
1.000000 0.000000 0.356863
0.000000 0.160784 0.356863
0.000000 0.156863 0.368627
0.003922 0.164706 0.407843
0.007843 0.176471 0.486275
0.109804 0.105882 0.513725
0.615686 0.000000 0.541176
0.772549 0.000000 0.486275
0.882353 0.003922 0.423529
1.000000 0.003922 0.349020
0.000000 0.211765 0.364706
0.003922 0.219608 0.368627
0.003922 0.231373 0.415686
0.000000 0.250980 0.470588
0.235294 0.203922 0.529412
0.627451 0.125490 0.537255
0.776471 0.078431 0.486275
0.890196 0.003922 0.411765
0.996078 0.039216 0.352941
0.000000 0.274510 0.372549
0.003922 0.282353 0.384314
0.003922 0.309804 0.400000
0.192157 0.388235 0.494118
0.392157 0.380392 0.549020
0.654902 0.356863 0.545098
0.784314 0.294118 0.458824
0.878431 0.298039 0.392157
0.972549 0.396078 0.388235
0.003922 0.478431 0.490196
0.007843 0.474510 0.490196
0.172549 0.501961 0.509804
0.364706 0.525490 0.541176
0.529412 0.564706 0.584314
0.670588 0.552941 0.545098
0.792157 0.533333 0.486275
0.905882 0.529412 0.435294
0.996078 0.556863 0.400000
0.286275 0.682353 0.603922
0.321569 0.678431 0.607843
0.400000 0.678431 0.607843
0.482353 0.682353 0.607843
0.556863 0.678431 0.607843
0.647059 0.678431 0.596078
0.800000 0.686275 0.560784
0.941176 0.701961 0.486275
1.000000 0.701961 0.415686
0.501961 0.811765 0.698039
0.501961 0.811765 0.686275
0.537255 0.807843 0.694118
0.592157 0.803922 0.701961
0.639216 0.796078 0.694118
0.682353 0.784314 0.670588
0.756863 0.780392 0.647059
0.870588 0.780392 0.619608
1.000000 0.819608 0.568627
0.635294 0.894118 0.776471
0.635294 0.890196 0.764706
0.654902 0.894118 0.772549
0.678431 0.886275 0.768627
0.705882 0.886275 0.772549
0.745098 0.882353 0.749020
0.803922 0.882353 0.737255
0.862745 0.878431 0.733333
0.952941 0.882353 0.741176
0.800000 0.964706 0.886275
0.792157 0.972549 0.870588
0.796078 0.960784 0.866667
0.811765 0.968627 0.866667
0.831373 0.968627 0.874510
0.850980 0.960784 0.870588
0.878431 0.964706 0.866667
0.933333 0.972549 0.870588
0.984314 0.976471 0.878431
0.000000 0.200000 0.486275
0.000000 0.207843 0.505882
0.003922 0.207843 0.537255
0.003922 0.215686 0.592157
0.000000 0.223529 0.666667
0.239216 0.090196 0.666667
0.741176 0.003922 0.698039
0.898039 0.000000 0.678431
0.996078 0.003922 0.643137
0.000000 0.227451 0.513725
0.000000 0.235294 0.517647
0.007843 0.235294 0.552941
0.000000 0.254902 0.600000
0.000000 0.254902 0.670588
0.278431 0.145098 0.686275
0.749020 0.003922 0.694118
0.905882 0.000000 0.666667
0.996078 0.007843 0.623529
0.003922 0.286275 0.505882
0.000000 0.290196 0.517647
0.003922 0.298039 0.552941
0.000000 0.321569 0.596078
0.007843 0.352941 0.682353
0.376471 0.262745 0.686275
0.788235 0.133333 0.698039
0.901961 0.184314 0.650980
1.000000 0.180392 0.619608
0.003922 0.329412 0.486275
0.000000 0.349020 0.513725
0.000000 0.388235 0.541176
0.000000 0.415686 0.600000
0.094118 0.454902 0.678431
0.474510 0.415686 0.686275
0.796078 0.356863 0.686275
0.894118 0.352941 0.647059
1.000000 0.313725 0.592157
0.000000 0.450980 0.533333
0.000000 0.447059 0.529412
0.050980 0.462745 0.545098
0.262745 0.478431 0.556863
0.447059 0.572549 0.662745
0.588235 0.592157 0.713725
0.792157 0.549020 0.694118
0.901961 0.498039 0.611765
0.996078 0.474510 0.549020
0.156863 0.643137 0.643137
0.219608 0.643137 0.643137
0.337255 0.658824 0.650980
0.439216 0.674510 0.666667
0.556863 0.698039 0.698039
0.690196 0.729412 0.737255
0.796078 0.694118 0.690196
0.894118 0.682353 0.635294
1.000000 0.686275 0.596078
0.549020 0.831373 0.776471
0.556863 0.835294 0.772549
0.588235 0.831373 0.780392
0.627451 0.823529 0.780392
0.674510 0.835294 0.772549
0.729412 0.815686 0.768627
0.772549 0.803922 0.745098
0.886275 0.807843 0.701961
0.996078 0.823529 0.647059
0.670588 0.913725 0.831373
0.658824 0.905882 0.823529
0.686275 0.901961 0.819608
0.705882 0.909804 0.823529
0.745098 0.909804 0.831373
0.768627 0.898039 0.823529
0.803922 0.890196 0.807843
0.870588 0.886275 0.788235
0.949020 0.894118 0.788235
0.776471 0.968627 0.886275
0.784314 0.972549 0.878431
0.800000 0.968627 0.890196
0.811765 0.976471 0.890196
0.843137 0.972549 0.905882
0.862745 0.968627 0.901961
0.894118 0.968627 0.890196
0.929412 0.976471 0.890196
0.976471 0.984314 0.890196
0.003922 0.317647 0.658824
0.003922 0.321569 0.678431
0.000000 0.325490 0.686275
0.003922 0.333333 0.725490
0.000000 0.341176 0.764706
0.000000 0.325490 0.827451
0.427451 0.149020 0.807843
0.827451 0.011765 0.803922
0.996078 0.000000 0.823529
0.003922 0.341176 0.674510
0.000000 0.352941 0.670588
0.000000 0.352941 0.698039
0.000000 0.360784 0.717647
0.000000 0.356863 0.764706
0.000000 0.360784 0.819608
0.450980 0.203922 0.803922
0.831373 0.003922 0.819608
0.996078 0.133333 0.823529
0.000000 0.384314 0.650980
0.000000 0.392157 0.674510
0.011765 0.396078 0.682353
0.000000 0.407843 0.725490
0.000000 0.431373 0.764706
0.007843 0.431373 0.823529
0.505882 0.313725 0.815686
0.858824 0.231373 0.819608
1.000000 0.301961 0.835294
0.000000 0.439216 0.635294
0.003922 0.439216 0.654902
0.003922 0.462745 0.674510
0.003922 0.482353 0.713725
0.011765 0.509804 0.756863
0.047059 0.533333 0.815686
0.580392 0.458824 0.823529
0.886275 0.403922 0.819608
0.988235 0.435294 0.811765
0.000000 0.443137 0.576471
0.003922 0.454902 0.607843
0.003922 0.486275 0.647059
0.196078 0.545098 0.694118
0.313725 0.588235 0.729412
0.435294 0.639216 0.792157
0.643137 0.607843 0.823529
0.901961 0.560784 0.827451
0.996078 0.568627 0.792157
0.003922 0.611765 0.666667
0.000000 0.619608 0.682353
0.168627 0.611765 0.682353
0.301961 0.619608 0.686275
0.435294 0.619608 0.690196
0.607843 0.721569 0.776471
0.721569 0.745098 0.839216
0.886275 0.705882 0.807843
0.984314 0.662745 0.760784
0.396078 0.780392 0.776471
0.419608 0.780392 0.768627
0.466667 0.788235 0.772549
0.537255 0.796078 0.796078
0.623529 0.800000 0.788235
0.717647 0.819608 0.815686
0.800000 0.847059 0.847059
0.882353 0.811765 0.803922
0.988235 0.807843 0.756863
0.678431 0.913725 0.866667
0.698039 0.913725 0.882353
0.717647 0.913725 0.870588
0.745098 0.913725 0.878431
0.764706 0.929412 0.882353
0.811765 0.917647 0.882353
0.831373 0.909804 0.866667
0.874510 0.898039 0.850980
0.976471 0.909804 0.839216
0.788235 0.976471 0.913725
0.800000 0.972549 0.921569
0.803922 0.968627 0.913725
0.815686 0.976471 0.913725
0.843137 0.976471 0.921569
0.874510 0.976471 0.925490
0.901961 0.980392 0.933333
0.925490 0.980392 0.913725
0.988235 0.992157 0.929412
0.000000 0.505882 0.811765
0.000000 0.501961 0.819608
0.000000 0.501961 0.827451
0.000000 0.490196 0.850980
0.007843 0.482353 0.862745
0.000000 0.478431 0.886275
0.011765 0.431373 0.925490
0.600000 0.258824 0.913725
0.937255 0.192157 0.921569
0.000000 0.494118 0.815686
0.003922 0.498039 0.827451
0.003922 0.498039 0.835294
0.000000 0.505882 0.850980
0.000000 0.505882 0.870588
0.000000 0.501961 0.882353
0.011765 0.458824 0.929412
0.607843 0.305882 0.917647
0.921569 0.243137 0.905882
0.000000 0.533333 0.807843
0.011765 0.537255 0.815686
0.000000 0.545098 0.823529
0.000000 0.537255 0.835294
0.003922 0.545098 0.866667
0.007843 0.545098 0.898039
0.007843 0.537255 0.925490
0.635294 0.403922 0.913725
0.925490 0.360784 0.905882
0.000000 0.560784 0.803922
0.000000 0.580392 0.807843
0.000000 0.576471 0.815686
0.011765 0.588235 0.831373
0.003922 0.592157 0.858824
0.000000 0.611765 0.882353
0.192157 0.619608 0.921569
0.674510 0.513725 0.913725
0.941176 0.470588 0.913725
0.000000 0.600000 0.772549
0.003922 0.607843 0.780392
0.000000 0.627451 0.780392
0.000000 0.635294 0.811765
0.188235 0.654902 0.843137
0.341176 0.678431 0.878431
0.478431 0.701961 0.901961
0.721569 0.647059 0.913725
0.956863 0.611765 0.917647
0.000000 0.627451 0.752941
0.000000 0.627451 0.752941
0.007843 0.619608 0.749020
0.203922 0.635294 0.772549
0.423529 0.701961 0.819608
0.525490 0.741176 0.858824
0.623529 0.776471 0.890196
0.780392 0.760784 0.917647
0.972549 0.729412 0.913725
0.290196 0.768627 0.819608
0.313725 0.784314 0.819608
0.356863 0.772549 0.815686
0.411765 0.772549 0.815686
0.494118 0.756863 0.819608
0.568627 0.749020 0.800000
0.721569 0.831373 0.882353
0.835294 0.847059 0.913725
0.976471 0.827451 0.917647
0.580392 0.894118 0.882353
0.576471 0.890196 0.878431
0.600000 0.894118 0.882353
0.647059 0.890196 0.886275
0.686275 0.901961 0.882353
0.749020 0.905882 0.901961
0.823529 0.909804 0.890196
0.913725 0.937255 0.929412
0.976471 0.905882 0.890196
0.796078 0.976471 0.937255
0.784314 0.976471 0.952941
0.811765 0.972549 0.949020
0.831373 0.976471 0.945098
0.854902 0.980392 0.960784
0.882353 0.988235 0.960784
0.909804 0.988235 0.945098
0.945098 0.984314 0.949020
0.992157 0.988235 0.968627
0.003922 0.729412 0.941176
0.003922 0.729412 0.941176
0.003922 0.729412 0.949020
0.000000 0.717647 0.945098
0.000000 0.705882 0.960784
0.003922 0.678431 0.968627
0.003922 0.635294 0.980392
0.000000 0.521569 1.000000
0.745098 0.458824 0.988235
0.000000 0.733333 0.941176
0.000000 0.729412 0.937255
0.000000 0.725490 0.945098
0.000000 0.709804 0.949020
0.011765 0.705882 0.956863
0.000000 0.674510 0.964706
0.003922 0.643137 0.984314
0.003922 0.549020 0.984314
0.741176 0.478431 1.000000
0.000000 0.733333 0.925490
0.003922 0.737255 0.945098
0.000000 0.733333 0.949020
0.000000 0.721569 0.949020
0.000000 0.717647 0.960784
0.000000 0.705882 0.976471
0.000000 0.686275 0.988235
0.176471 0.611765 1.000000
0.772549 0.541176 1.000000
0.000000 0.760784 0.929412
0.000000 0.764706 0.937255
0.039216 0.756863 0.949020
0.094118 0.756863 0.949020
0.152941 0.752941 0.956863
0.211765 0.741176 0.960784
0.290196 0.729412 0.964706
0.384314 0.686275 1.000000
0.784314 0.611765 0.992157
0.376471 0.800000 0.949020
0.380392 0.792157 0.937255
0.384314 0.796078 0.941176
0.396078 0.796078 0.945098
0.419608 0.792157 0.949020
0.443137 0.788235 0.964706
0.498039 0.780392 0.968627
0.549020 0.768627 0.992157
0.792157 0.717647 0.976471
0.478431 0.819608 0.925490
0.490196 0.823529 0.933333
0.513725 0.831373 0.945098
0.545098 0.835294 0.941176
0.560784 0.831373 0.945098
0.588235 0.835294 0.956863
0.635294 0.831373 0.976471
0.682353 0.839216 0.980392
0.854902 0.800000 1.000000
0.564706 0.866667 0.929412
0.564706 0.866667 0.929412
0.572549 0.870588 0.933333
0.592157 0.858824 0.933333
0.607843 0.862745 0.933333
0.686275 0.870588 0.949020
0.721569 0.882353 0.960784
0.788235 0.894118 0.976471
0.886275 0.874510 0.988235
0.698039 0.937255 0.956863
0.686275 0.933333 0.960784
0.690196 0.937255 0.964706
0.709804 0.933333 0.960784
0.729412 0.937255 0.960784
0.760784 0.929412 0.952941
0.780392 0.925490 0.964706
0.858824 0.937255 0.972549
0.941176 0.941176 0.988235
0.784314 0.984314 0.988235
0.784314 0.980392 0.968627
0.788235 0.984314 0.972549
0.800000 0.992157 0.976471
0.827451 0.992157 0.976471
0.850980 0.984314 0.980392
0.890196 0.992157 0.988235
0.937255 1.000000 1.000000
1.000000 0.996078 1.000000
