example/web/assets/MOA_5.cube
#Generated with IWLTBAP LUT Generator
#Website: http://luts.iwltbap.com
TITLE "LUTb-125"
#LUT size
LUT_3D_SIZE 5
#LUT data points
0.015686 0.015686 0.015686
0.101961 0.031373 0.023529
0.341176 0.003922 0.015686
0.705882 0.000000 0.003922
0.980392 0.247059 0.000000
0.003922 0.109804 0.074510
0.070588 0.109804 0.066667
0.462745 0.172549 0.000000
0.788235 0.211765 0.000000
0.996078 0.360784 0.003922
0.007843 0.419608 0.192157
0.031373 0.400000 0.188235
0.396078 0.415686 0.149020
0.792157 0.501961 0.000000
0.996078 0.603922 0.000000
0.345098 0.752941 0.458824
0.388235 0.749020 0.447059
0.529412 0.737255 0.431373
0.752941 0.749020 0.388235
0.976471 0.788235 0.364706
0.776471 0.960784 0.819608
0.772549 0.952941 0.811765
0.815686 0.964706 0.819608
0.882353 0.964706 0.835294
0.984314 0.984314 0.850980
0.000000 0.050980 0.109804
0.015686 0.035294 0.149020
0.364706 0.000000 0.137255
0.686275 0.000000 0.129412
0.992157 0.219608 0.023529
0.007843 0.125490 0.156863
0.098039 0.152941 0.196078
0.439216 0.160784 0.160784
0.752941 0.196078 0.109804
1.000000 0.345098 0.000000
0.000000 0.494118 0.325490
0.160784 0.474510 0.321569
0.443137 0.466667 0.294118
0.839216 0.537255 0.090196
0.996078 0.592157 0.000000
0.419608 0.772549 0.560784
0.458824 0.776471 0.549020
0.560784 0.760784 0.529412
0.752941 0.756863 0.490196
0.992157 0.792157 0.427451
0.780392 0.964706 0.831373
0.788235 0.956863 0.839216
0.819608 0.960784 0.843137
0.886275 0.964706 0.850980
0.984314 0.980392 0.858824
0.000000 0.121569 0.341176
0.000000 0.133333 0.400000
0.000000 0.070588 0.482353
0.760784 0.000000 0.482353
1.000000 0.000000 0.356863
0.000000 0.211765 0.364706
0.003922 0.231373 0.415686
0.235294 0.203922 0.529412
0.776471 0.078431 0.486275
0.996078 0.039216 0.352941
0.003922 0.478431 0.490196
0.172549 0.501961 0.509804
0.529412 0.564706 0.584314
0.792157 0.533333 0.486275
0.996078 0.556863 0.400000
0.501961 0.811765 0.698039
0.537255 0.807843 0.694118
0.639216 0.796078 0.694118
0.756863 0.780392 0.647059
1.000000 0.819608 0.568627
0.800000 0.964706 0.886275
0.796078 0.960784 0.866667
0.831373 0.968627 0.874510
0.878431 0.964706 0.866667
0.984314 0.976471 0.878431
0.003922 0.317647 0.658824
0.000000 0.325490 0.686275
0.000000 0.341176 0.764706
0.427451 0.149020 0.807843
0.996078 0.000000 0.823529
0.000000 0.384314 0.650980
0.011765 0.396078 0.682353
0.000000 0.431373 0.764706
0.505882 0.313725 0.815686
1.000000 0.301961 0.835294
0.000000 0.443137 0.576471
0.003922 0.486275 0.647059
0.313725 0.588235 0.729412
0.643137 0.607843 0.823529
0.996078 0.568627 0.792157
0.396078 0.780392 0.776471
0.466667 0.788235 0.772549
0.623529 0.800000 0.788235
0.800000 0.847059 0.847059
0.988235 0.807843 0.756863
0.788235 0.976471 0.913725
0.803922 0.968627 0.913725
0.843137 0.976471 0.921569
0.901961 0.980392 0.933333
0.988235 0.992157 0.929412
0.003922 0.729412 0.941176
0.003922 0.729412 0.949020
0.000000 0.705882 0.960784
0.003922 0.635294 0.980392
0.745098 0.458824 0.988235
0.000000 0.733333 0.925490
0.000000 0.733333 0.949020
0.000000 0.717647 0.960784
0.000000 0.686275 0.988235
0.772549 0.541176 1.000000
0.376471 0.800000 0.949020
0.384314 0.796078 0.941176
0.419608 0.792157 0.949020
0.498039 0.780392 0.968627
0.792157 0.717647 0.976471
0.564706 0.866667 0.929412
0.572549 0.870588 0.933333
0.607843 0.862745 0.933333
0.721569 0.882353 0.960784
0.886275 0.874510 0.988235
0.784314 0.984314 0.988235
0.788235 0.984314 0.972549
0.827451 0.992157 0.976471
0.890196 0.992157 0.988235
1.000000 0.996078 1.000000
